%
(BRIANPLEX)
(T1  D=1.587 CR=0. - ZMIN=-0.2 - FLAT END MILL)
N10 G90 G94 G17 G91.1
N15 G21
N20 G53 G0 Z0.
(2D POCKET3)
N25 M9
N30 T1 M6
N35 S2000 M3
N40 G54
N45 M8
N55 G0 X17.922 Y38.935
N60 G43 Z15.75 H1
N65 G0 Z5.75
N70 G1 Z3.409 F304.8
N75 G3 X17.921 Y38.914 Z3.331 I0.753 J-0.042
N80 X17.922 Y38.859 Z3.273 I0.754 J-0.022
N85 X17.929 Y38.782 Z3.25 I0.753 J0.034
N90 X19.421 Y39.004 Z3.167 I0.746 J0.111
N95 X17.929 Y38.782 Z3.085 I-0.746 J-0.111
N100 X19.421 Y39.004 Z3.002 I0.746 J0.111
N105 X17.929 Y38.782 Z2.919 I-0.746 J-0.111
N110 X19.421 Y39.004 Z2.836 I0.746 J0.111
N115 X17.929 Y38.782 Z2.754 I-0.746 J-0.111
N120 X19.421 Y39.004 Z2.671 I0.746 J0.111
N125 X17.929 Y38.782 Z2.588 I-0.746 J-0.111
N130 X19.421 Y39.004 Z2.505 I0.746 J0.111
N135 X17.929 Y38.782 Z2.423 I-0.746 J-0.111
N140 X19.421 Y39.004 Z2.34 I0.746 J0.111
N145 X17.929 Y38.782 Z2.257 I-0.746 J-0.111
N150 X19.421 Y39.004 Z2.175 I0.746 J0.111
N155 X17.929 Y38.782 Z2.092 I-0.746 J-0.111
N160 X19.421 Y39.004 Z2.009 I0.746 J0.111
N165 X17.929 Y38.782 Z1.926 I-0.746 J-0.111
N170 X19.421 Y39.004 Z1.844 I0.746 J0.111
N175 X17.929 Y38.782 Z1.761 I-0.746 J-0.111
N180 X19.421 Y39.004 Z1.678 I0.746 J0.111
N185 X17.929 Y38.782 Z1.595 I-0.746 J-0.111
N190 X19.421 Y39.004 Z1.513 I0.746 J0.111
N195 X17.929 Y38.782 Z1.43 I-0.746 J-0.111
N200 X19.421 Y39.004 Z1.347 I0.746 J0.111
N205 X17.929 Y38.782 Z1.265 I-0.746 J-0.111
N210 X19.421 Y39.004 Z1.182 I0.746 J0.111
N215 X17.929 Y38.782 Z1.099 I-0.746 J-0.111
N220 X19.421 Y39.004 Z1.016 I0.746 J0.111
N225 X17.929 Y38.782 Z0.934 I-0.746 J-0.111
N230 X19.421 Y39.004 Z0.851 I0.746 J0.111
N235 X17.929 Y38.782 Z0.768 I-0.746 J-0.111
N240 X19.421 Y39.004 Z0.686 I0.746 J0.111
N245 X17.929 Y38.782 Z0.603 I-0.746 J-0.111
N250 X19.421 Y39.004 Z0.52 I0.746 J0.111
N255 X17.929 Y38.782 Z0.437 I-0.746 J-0.111
N260 X19.421 Y39.004 Z0.355 I0.746 J0.111
N265 X17.929 Y38.782 Z0.272 I-0.746 J-0.111
N270 X19.421 Y39.004 Z0.189 I0.746 J0.111
N275 X17.929 Y38.782 Z0.106 I-0.746 J-0.111
N280 X19.421 Y39.004 Z0.024 I0.746 J0.111
N285 X17.929 Y38.782 Z-0.059 I-0.746 J-0.111
N290 X19.421 Y39.004 Z-0.142 I0.746 J0.111
N295 X18.14 Y39.424 Z-0.2 I-0.746 J-0.111
N300 X18.907 Y38.663 I0.383 J-0.381
N305 G2 X18.926 Y38.682 I1.311 J-1.302
N310 G3 Y39.018 I-0.165 J0.168
N315 G2 X18.691 Y39.299 I1.292 J1.321
N320 G3 X18.453 Y39.226 I-0.108 J-0.073
N325 G1 Y38.461
N330 G3 X18.684 Y38.391 I0.126 J0.
N335 G2 X18.907 Y38.663 I1.534 J-1.03
N340 X19.47 Y38.743 I0.334 J-0.332
N345 G3 X20.03 Y38.64 I0.43 J0.775
N350 G2 X20.218 Y38.654 I0.189 J-1.28
N355 G1 X23.129
N360 X23.257 Y38.655
N365 X23.393 Y38.657
N370 X23.53 Y38.658
N375 X23.669
N380 X23.808
N385 X23.95 Y38.657
N390 X24.092 Y38.655
N395 X24.236 Y38.652
N400 G2 X24.248 I-0.026 J-1.293
N405 G1 X24.381 Y38.648
N410 G2 X24.394 I-0.038 J-1.293
N415 G1 X24.528 Y38.643
N420 G2 X24.542 Y38.642 I-0.05 J-1.293
N425 G1 X24.676 Y38.635
N430 G2 X24.691 Y38.634 I-0.065 J-1.292
N435 G1 X24.824 Y38.626
N440 G2 X24.841 Y38.625 I-0.079 J-1.291
N445 G1 X24.975 Y38.615
N450 G2 X24.993 Y38.614 I-0.097 J-1.29
N455 G1 X25.126 Y38.602
N460 G2 X25.146 Y38.6 I-0.115 J-1.289
N465 G1 X25.279 Y38.586
N470 G2 X25.299 Y38.584 I-0.134 J-1.287
N475 G1 X25.432 Y38.568
N480 G2 X25.451 Y38.565 I-0.155 J-1.284
N485 G1 X25.584 Y38.547
N490 G2 X25.6 Y38.545 I-0.174 J-1.282
N495 G1 X25.732 Y38.525
N500 G2 X25.748 Y38.523 I-0.19 J-1.28
N505 G1 X25.88 Y38.501
N510 G2 X25.891 Y38.5 I-0.206 J-1.277
N515 G1 X26.023 Y38.477
N520 X26.165 Y38.452
N525 X26.304 Y38.426
N530 X26.441 Y38.401
N535 X26.574 Y38.375
N540 G2 X26.825 Y38.301 I-0.24 J-1.271
N545 G1 X26.88 Y38.278
N550 X26.938 Y38.254
N555 X27.001 Y38.228
N560 G2 X27.013 Y38.223 I-0.501 J-1.193
N565 G1 X27.068 Y38.199
N570 G2 X27.083 Y38.193 I-0.513 J-1.188
N575 G1 X27.137 Y38.169
N580 G2 X27.156 Y38.16 I-0.528 J-1.181
N585 G1 X27.209 Y38.135
N590 G2 X27.231 Y38.125 I-0.546 J-1.173
N595 G1 X27.285 Y38.099
N600 G2 X27.309 Y38.086 I-0.568 J-1.162
N605 G1 X27.361 Y38.059
N610 G2 X27.392 Y38.043 I-0.593 J-1.15
N615 G1 X27.443 Y38.015
N620 G2 X27.475 Y37.997 I-0.623 J-1.134
N625 G1 X27.505 Y37.979
N630 G2 X27.094 Y39.739 I0.696 J1.091
N635 G1 X27.085 Y39.732
N640 G2 X27.061 Y39.716 I-0.746 J1.057
N645 G1 X27.006 Y39.679
N650 G2 X26.978 Y39.66 I-0.722 J1.073
N655 G1 X26.922 Y39.625
N660 G2 X26.889 Y39.605 I-0.694 J1.092
N665 G1 X26.832 Y39.571
N670 G2 X26.793 Y39.548 I-0.662 J1.112
N675 G1 X26.735 Y39.516
N680 G2 X26.691 Y39.494 I-0.623 J1.134
N685 G1 X26.632 Y39.464
N690 G2 X26.584 Y39.441 I-0.579 J1.157
N695 G1 X26.524 Y39.414
N700 G2 X26.476 Y39.393 I-0.531 J1.18
N705 G1 X26.414 Y39.369
N710 G2 X26.369 Y39.352 I-0.483 J1.2
N715 G1 X26.307 Y39.329
N720 G2 X26.268 Y39.316 I-0.438 J1.217
N725 G1 X26.205 Y39.295
N730 G2 X26.166 Y39.284 I-0.399 J1.231
N735 G1 X26.102 Y39.265
N740 G2 X26.068 Y39.256 I-0.361 J1.242
N745 G1 X26.003 Y39.239
N750 G2 X25.977 Y39.232 I-0.326 J1.252
N755 G1 X25.912 Y39.217
N760 G2 X25.888 Y39.211 I-0.3 J1.258
N765 G1 X25.822 Y39.197
N770 G2 X25.799 Y39.192 I-0.276 J1.264
N775 G1 X25.733 Y39.179
N780 G2 X25.717 Y39.176 I-0.254 J1.269
N785 G1 X25.65 Y39.163
N790 G2 X25.639 Y39.161 I-0.238 J1.272
N795 G1 X25.572 Y39.149
N800 X25.496 Y39.136
N805 X25.425 Y39.124
N810 G2 X25.285 Y39.108 I-0.214 J1.276
N815 G1 X25.176 Y39.102
N820 X25.066 Y39.096
N825 X24.954 Y39.09
N830 X24.844 Y39.084
N835 X24.731 Y39.078
N840 X24.617 Y39.073
N845 X24.503 Y39.068
N850 X24.389 Y39.063
N855 X24.272 Y39.059
N860 X24.157 Y39.055
N865 X24.042 Y39.052
N870 X23.926 Y39.05
N875 X23.812 Y39.048
N880 X23.698 Y39.046
N885 X23.584 Y39.045
N890 X23.472 Y39.044
N895 X23.358
N900 X23.245
N905 X23.135
N910 X23.023
N915 X22.911
N920 X22.8
N925 X22.691 Y39.045
N930 X22.583
N935 X20.218
N940 G2 X18.924 Y40.339 I0. J1.294
N945 G1 Y44.477
N950 G2 X20.218 Y45.771 I1.294 J0.
N955 G1 X22.29
N960 X22.416 Y45.772
N965 X22.545
N970 X22.676 Y45.773
N975 X22.804
N980 X22.935
N985 X23.065
N990 X23.197
N995 X23.328
N1000 X23.459 Y45.772
N1005 X23.592 Y45.771
N1010 X23.724 Y45.769
N1015 X23.856 Y45.767
N1020 X23.99 Y45.765
N1025 X24.124 Y45.762
N1030 X24.257 Y45.759
N1035 X24.391 Y45.755
N1040 X24.526 Y45.75
N1045 X24.659 Y45.745
N1050 X24.793 Y45.74
N1055 X24.925 Y45.734
N1060 X25.056 Y45.728
N1065 X25.187 Y45.721
N1070 X25.317 Y45.715
N1075 X25.446 Y45.708
N1080 G2 X25.599 Y45.692 I-0.064 J-1.292
N1085 G1 X25.663 Y45.681
N1090 X25.729 Y45.669
N1095 G2 X25.74 Y45.667 I-0.219 J-1.275
N1100 G1 X25.803 Y45.656
N1105 G2 X25.816 Y45.654 I-0.23 J-1.273
N1110 G1 X25.879 Y45.642
N1115 G2 X25.896 Y45.638 I-0.242 J-1.271
N1120 G1 X25.959 Y45.625
N1125 G2 X25.981 Y45.621 I-0.26 J-1.267
N1130 G1 X26.043 Y45.607
N1135 G2 X26.071 Y45.6 I-0.281 J-1.263
N1140 G1 X26.133 Y45.585
N1145 G2 X26.164 Y45.577 I-0.309 J-1.256
N1150 G1 X26.226 Y45.56
N1155 G2 X26.261 Y45.55 I-0.34 J-1.248
N1160 G1 X26.321 Y45.532
N1165 G2 X26.362 Y45.519 I-0.375 J-1.238
N1170 G1 X26.421 Y45.499
N1175 G2 X26.465 Y45.483 I-0.416 J-1.225
N1180 G1 X26.523 Y45.461
N1185 G2 X26.572 Y45.441 I-0.459 J-1.21
N1190 G1 X26.629 Y45.417
N1195 G2 X26.682 Y45.393 I-0.508 J-1.19
N1200 G1 X26.738 Y45.366
N1205 G2 X26.792 Y45.339 I-0.56 J-1.166
N1210 G1 X26.846 Y45.309
N1215 G2 X26.894 Y45.282 I-0.614 J-1.139
N1220 G1 X26.948 Y45.25
N1225 G2 X26.991 Y45.223 I-0.661 J-1.112
N1230 G1 X27.043 Y45.189
N1235 G2 X27.08 Y45.165 I-0.704 J-1.085
N1240 G1 X27.131 Y45.129
N1245 G2 X27.161 Y45.107 I-0.741 J-1.061
N1250 G1 X27.212 Y45.069
N1255 G2 X27.239 Y45.049 I-0.77 J-1.039
N1260 G1 X27.289 Y45.01
N1265 G2 X27.308 Y44.995 I-0.798 J-1.019
N1270 G1 X27.358 Y44.954
N1275 G2 X27.376 Y44.939 I-0.816 J-1.004
N1280 G1 X27.425 Y44.898
N1285 G2 X27.435 Y44.889 I-0.834 J-0.989
N1290 G1 X27.484 Y44.847
N1295 G2 X27.492 Y44.84 I-0.844 J-0.98
N1300 G1 X27.541 Y44.797
N1305 X27.594 Y44.75
N1310 G2 X27.793 Y44.528 I-0.857 J-0.969
N1315 G1 X27.829 Y44.478
N1320 X27.865 Y44.427
N1325 G2 X27.872 Y44.416 I-1.057 J-0.746
N1330 G1 X27.907 Y44.366
N1335 G2 X27.915 Y44.354 I-1.065 J-0.735
N1340 G1 X27.949 Y44.303
N1345 G2 X27.961 Y44.286 I-1.073 J-0.723
N1350 G1 X27.994 Y44.235
N1355 G2 X28.008 Y44.213 I-1.084 J-0.706
N1360 G1 X28.04 Y44.161
N1365 G2 X28.055 Y44.136 I-1.098 J-0.684
N1370 G1 X28.086 Y44.084
N1375 G2 X28.105 Y44.051 I-1.114 J-0.659
N1380 G1 X28.134 Y43.999
N1385 G2 X28.154 Y43.96 I-1.132 J-0.626
N1390 G1 X28.181 Y43.907
N1395 G2 X28.202 Y43.864 I-1.153 J-0.587
N1400 G1 X28.227 Y43.81
N1405 G2 X28.249 Y43.761 I-1.174 J-0.544
N1410 G1 X28.272 Y43.706
N1415 G2 X28.293 Y43.651 I-1.195 J-0.495
N1420 G1 X28.313 Y43.595
N1425 G2 X28.332 Y43.54 I-1.217 J-0.44
N1430 G1 X28.349 Y43.483
N1435 G2 X28.364 Y43.432 I-1.235 J-0.384
N1440 G1 X28.379 Y43.375
N1445 G2 X28.391 Y43.328 I-1.25 J-0.333
N1450 G1 X28.404 Y43.27
N1455 G2 X28.413 Y43.225 I-1.262 J-0.287
N1460 G1 X28.425 Y43.166
N1465 G2 X28.431 Y43.131 I-1.271 J-0.242
N1470 G1 X28.44 Y43.072
N1475 G2 X28.446 Y43.036 I-1.277 J-0.206
N1480 G1 X28.454 Y42.976
N1485 G2 X28.457 Y42.95 I-1.282 J-0.171
N1490 G1 X28.464 Y42.89
N1495 G2 X28.466 Y42.868 I-1.286 J-0.145
N1500 G1 X28.472 Y42.807
N1505 G2 X28.473 Y42.788 I-1.288 J-0.123
N1510 G1 X28.478 Y42.727
N1515 G2 X28.479 Y42.713 I-1.29 J-0.104
N1520 G1 X28.484 Y42.652
N1525 G2 Y42.642 I-1.291 J-0.09
N1530 G1 X28.488 Y42.58
N1535 X28.492 Y42.514
N1540 G2 X28.491 Y42.348 I-1.292 J-0.075
N1545 G1 X28.486 Y42.282
N1550 X28.481 Y42.213
N1555 G2 Y42.203 I-1.29 J0.095
N1560 G1 X28.475 Y42.138
N1565 G2 X28.474 Y42.124 I-1.289 J0.105
N1570 G1 X28.468 Y42.059
N1575 G2 X28.466 Y42.036 I-1.288 J0.119
N1580 G1 X28.459 Y41.972
N1585 G2 X28.456 Y41.949 I-1.286 J0.142
N1590 G1 X28.448 Y41.885
N1595 G2 X28.444 Y41.856 I-1.283 J0.164
N1600 G1 X28.434 Y41.792
N1605 G2 X28.428 Y41.755 I-1.279 J0.194
N1610 G1 X28.416 Y41.692
N1615 G2 X28.409 Y41.652 I-1.273 J0.231
N1620 G1 X28.395 Y41.59
N1625 G2 X28.384 Y41.543 I-1.265 J0.271
N1630 G1 X28.369 Y41.482
N1635 G2 X28.355 Y41.431 I-1.254 J0.318
N1640 G1 X28.337 Y41.371
N1645 G2 X28.319 Y41.316 I-1.24 J0.369
N1650 G1 X28.299 Y41.257
N1655 G2 X28.276 Y41.197 I-1.223 J0.423
N1660 G1 X28.253 Y41.139
N1665 G2 X28.228 Y41.08 I-1.2 J0.483
N1670 G1 X28.201 Y41.023
N1675 G2 X28.176 Y40.971 I-1.175 J0.542
N1680 G1 X28.147 Y40.915
N1685 G2 X28.123 Y40.87 I-1.149 J0.594
N1690 G1 X28.091 Y40.815
N1695 G2 X28.069 Y40.777 I-1.125 J0.639
N1700 G1 X28.035 Y40.723
N1705 G2 X28.015 Y40.69 I-1.102 J0.677
N1710 G1 X27.98 Y40.637
N1715 G2 X27.96 Y40.608 I-1.082 J0.71
N1720 G1 X27.924 Y40.555
N1725 G2 X27.909 Y40.534 I-1.062 J0.738
N1730 G1 X27.871 Y40.482
N1735 G2 X27.857 Y40.464 I-1.047 J0.76
N1740 G1 X27.818 Y40.412
N1745 G2 X27.809 Y40.4 I-1.034 J0.778
N1750 G1 X27.77 Y40.348
N1755 G2 X27.762 Y40.338 I-1.025 J0.789
N1760 G1 X27.721 Y40.287
N1765 X27.712 Y40.275
N1770 X27.765 Y40.304
N1775 X27.847 Y40.349
N1780 X27.925 Y40.392
N1785 X27.998 Y40.435
N1790 X28.068 Y40.476
N1795 X28.133 Y40.516
N1800 X28.194 Y40.556
N1805 X28.25 Y40.594
N1810 X28.301 Y40.631
N1815 X28.348 Y40.667
N1820 X28.391 Y40.703
N1825 X28.433 Y40.74
N1830 X28.475 Y40.78
N1835 X28.519 Y40.825
N1840 X28.565 Y40.874
N1845 X28.613 Y40.928
N1850 X28.662 Y40.986
N1855 X28.713 Y41.049
N1860 X28.766 Y41.115
N1865 X28.821 Y41.186
N1870 X28.877 Y41.26
N1875 X28.936 Y41.338
N1880 X28.944 Y41.348
N1885 X28.95 Y41.36
N1890 X28.997 Y41.445
N1895 X29.041 Y41.527
N1900 X29.083 Y41.605
N1905 X29.122 Y41.68
N1910 X29.158 Y41.753
N1915 X29.191 Y41.821
N1920 X29.22 Y41.887
N1925 X29.246 Y41.949
N1930 X29.269 Y42.007
N1935 X29.288 Y42.062
N1940 X29.305 Y42.114
N1945 X29.32 Y42.167
N1950 X29.333 Y42.225
N1955 X29.346 Y42.286
N1960 X29.358 Y42.352
N1965 X29.369 Y42.424
N1970 X29.379 Y42.498
N1975 X29.388 Y42.579
N1980 X29.397 Y42.663
N1985 X29.404 Y42.751
N1990 X29.411 Y42.844
N1995 X29.419 Y42.941
N2000 X29.42 Y42.96
N2005 X29.414 Y43.054
N2010 X29.409 Y43.137
N2015 X29.403 Y43.216
N2020 X29.397 Y43.291
N2025 X29.39 Y43.363
N2030 X29.382 Y43.43
N2035 X29.374 Y43.494
N2040 X29.364 Y43.553
N2045 X29.354 Y43.608
N2050 X29.344 Y43.659
N2055 X29.332 Y43.706
N2060 X29.319 Y43.753
N2065 X29.304 Y43.801
N2070 X29.286 Y43.853
N2075 X29.266 Y43.908
N2080 X29.242 Y43.966
N2085 X29.216 Y44.027
N2090 X29.187 Y44.092
N2095 X29.156 Y44.16
N2100 X29.122 Y44.231
N2105 X29.086 Y44.306
N2110 X29.048 Y44.383
N2115 X29.041 Y44.397
N2120 X29.035 Y44.406
N2125 X28.991 Y44.473
N2130 X28.948 Y44.539
N2135 X28.905 Y44.603
N2140 X28.864 Y44.663
N2145 X28.825 Y44.719
N2150 X28.786 Y44.774
N2155 X28.748 Y44.825
N2160 X28.712 Y44.871
N2165 X28.676 Y44.916
N2170 X28.641 Y44.957
N2175 X28.607 Y44.995
N2180 X28.574 Y45.031
N2185 X28.536 Y45.068
N2190 X28.496 Y45.107
N2195 X28.453 Y45.146
N2200 X28.407 Y45.188
N2205 X28.357 Y45.23
N2210 X28.304 Y45.274
N2215 X28.248 Y45.32
N2220 X28.189 Y45.366
N2225 X28.127 Y45.415
N2230 X28.063 Y45.465
N2235 X27.981 Y45.515
N2240 X27.915 Y45.554
N2245 X27.851 Y45.591
N2250 X27.789 Y45.626
N2255 X27.73 Y45.659
N2260 X27.674 Y45.689
N2265 X27.619 Y45.718
N2270 X27.567 Y45.743
N2275 X27.517 Y45.766
N2280 X27.47 Y45.787
N2285 X27.425 Y45.805
N2290 X27.378 Y45.823
N2295 X27.328 Y45.84
N2300 X27.275 Y45.857
N2305 X27.219 Y45.874
N2310 X27.159 Y45.891
N2315 X27.095 Y45.907
N2320 X27.029 Y45.923
N2325 X26.96 Y45.94
N2330 X26.887 Y45.956
N2335 X26.811 Y45.973
N2340 X26.733 Y45.99
N2345 X26.707 Y45.995
N2350 X26.633 Y46.004
N2355 X26.504 Y46.02
N2360 X26.376 Y46.035
N2365 X26.249 Y46.05
N2370 X26.124 Y46.063
N2375 X26. Y46.077
N2380 X25.876 Y46.089
N2385 X25.755 Y46.1
N2390 X25.635 Y46.111
N2395 X25.514 Y46.12
N2400 X25.395 Y46.128
N2405 X25.275 Y46.135
N2410 X25.154 Y46.14
N2415 X25.032 Y46.145
N2420 X24.908 Y46.149
N2425 X24.784 Y46.153
N2430 X24.659 Y46.155
N2435 X24.533 Y46.158
N2440 X24.405 Y46.159
N2445 X24.278 Y46.16
N2450 X24.149 Y46.161
N2455 X24.019
N2460 X23.888 Y46.162
N2465 X23.757
N2470 X17.899
N2475 Y30.854
N2480 X22.694
N2485 X22.873 Y30.855
N2490 X23.055
N2495 X23.235 Y30.856
N2500 X23.415 Y30.857
N2505 X23.595 Y30.858
N2510 X23.775 Y30.86
N2515 X23.954 Y30.861
N2520 X24.133 Y30.863
N2525 X24.312 Y30.866
N2530 X24.49 Y30.869
N2535 X24.667 Y30.872
N2540 X24.845 Y30.876
N2545 X25.021 Y30.881
N2550 X25.198 Y30.886
N2555 X25.374 Y30.892
N2560 X25.55 Y30.899
N2565 X25.726 Y30.907
N2570 X25.903 Y30.915
N2575 X26.081 Y30.924
N2580 X26.259 Y30.933
N2585 X26.438 Y30.943
N2590 X26.618 Y30.953
N2595 X26.798 Y30.963
N2600 X26.919 Y30.97
N2605 X26.965 Y30.977
N2610 X27.068 Y30.993
N2615 X27.168 Y31.009
N2620 X27.263 Y31.025
N2625 X27.356 Y31.042
N2630 X27.445 Y31.058
N2635 X27.53 Y31.076
N2640 X27.611 Y31.094
N2645 X27.688 Y31.113
N2650 X27.763 Y31.133
N2655 X27.832 Y31.153
N2660 X27.898 Y31.175
N2665 X27.961 Y31.197
N2670 X28.026 Y31.223
N2675 X28.093 Y31.251
N2680 X28.162 Y31.283
N2685 X28.235 Y31.318
N2690 X28.31 Y31.356
N2695 X28.388 Y31.398
N2700 X28.469 Y31.441
N2705 X28.553 Y31.488
N2710 X28.639 Y31.538
N2715 X28.728 Y31.589
N2720 X28.81 Y31.655
N2725 X28.882 Y31.714
N2730 X28.951 Y31.771
N2735 X29.017 Y31.828
N2740 X29.079 Y31.882
N2745 X29.137 Y31.935
N2750 X29.192 Y31.987
N2755 X29.243 Y32.036
N2760 X29.289 Y32.084
N2765 X29.333 Y32.132
N2770 X29.373 Y32.178
N2775 X29.411 Y32.225
N2780 X29.451 Y32.277
N2785 X29.491 Y32.333
N2790 X29.532 Y32.392
N2795 X29.574 Y32.455
N2800 X29.616 Y32.523
N2805 X29.659 Y32.593
N2810 X29.704 Y32.668
N2815 X29.749 Y32.746
N2820 X29.796 Y32.828
N2825 X29.844 Y32.913
N2830 X29.86 Y32.943
N2835 X29.875 Y32.976
N2840 X29.914 Y33.067
N2845 X29.951 Y33.155
N2850 X29.987 Y33.24
N2855 X30.021 Y33.324
N2860 X30.052 Y33.404
N2865 X30.081 Y33.482
N2870 X30.108 Y33.556
N2875 X30.132 Y33.629
N2880 X30.154 Y33.698
N2885 X30.173 Y33.765
N2890 X30.19 Y33.83
N2895 X30.205 Y33.894
N2900 X30.218 Y33.961
N2905 X30.23 Y34.033
N2910 X30.242 Y34.108
N2915 X30.252 Y34.186
N2920 X30.257 Y34.228
N2925 X30.261 Y34.267
N2930 X30.27 Y34.352
N2935 X30.277 Y34.441
N2940 X30.284 Y34.534
N2945 X30.291 Y34.628
N2950 X30.297 Y34.727
N2955 X30.299 Y34.744
N2960 X30.296 Y34.779
N2965 X30.288 Y34.895
N2970 X30.279 Y35.005
N2975 X30.27 Y35.112
N2980 X30.26 Y35.213
N2985 X30.248 Y35.309
N2990 X30.236 Y35.4
N2995 X30.222 Y35.486
N3000 X30.206 Y35.567
N3005 X30.19 Y35.641
N3010 X30.172 Y35.71
N3015 X30.152 Y35.775
N3020 X30.13 Y35.838
N3025 X30.105 Y35.902
N3030 X30.076 Y35.971
N3035 X30.042 Y36.043
N3040 X30.003 Y36.119
N3045 X29.96 Y36.2
N3050 X29.913 Y36.283
N3055 X29.862 Y36.37
N3060 X29.807 Y36.461
N3065 X29.749 Y36.555
N3070 X29.689 Y36.649
N3075 X29.603 Y36.74
N3080 X29.522 Y36.825
N3085 X29.444 Y36.905
N3090 X29.368 Y36.98
N3095 X29.294 Y37.052
N3100 X29.222 Y37.118
N3105 X29.153 Y37.179
N3110 X29.086 Y37.234
N3115 X29.022 Y37.284
N3120 X28.96 Y37.329
N3125 X28.897 Y37.37
N3130 X28.832 Y37.41
N3135 X28.762 Y37.45
N3140 X28.686 Y37.489
N3145 X28.604 Y37.529
N3150 X28.517 Y37.568
N3155 X28.425 Y37.607
N3160 X28.328 Y37.647
N3165 X28.226 Y37.686
N3170 X28.119 Y37.726
N3175 X28.008 Y37.766
N3180 X27.892 Y37.807
N3185 X27.772 Y37.849
N3190 G2 X27.564 Y37.944 I0.429 J1.221
N3195 G1 X27.611 Y37.914
N3200 G2 X27.651 Y37.888 I-0.691 J-1.094
N3205 G1 X27.699 Y37.855
N3210 G2 X27.74 Y37.825 I-0.73 J-1.068
N3215 G1 X27.787 Y37.79
N3220 G2 X27.825 Y37.761 I-0.772 J-1.038
N3225 G1 X27.87 Y37.725
N3230 G2 X27.906 Y37.696 I-0.81 J-1.009
N3235 G1 X27.95 Y37.657
N3240 G2 X27.982 Y37.629 I-0.845 J-0.98
N3245 G1 X28.025 Y37.589
N3250 G2 X28.05 Y37.566 I-0.877 J-0.951
N3255 G1 X28.092 Y37.525
N3260 G2 X28.114 Y37.503 I-0.902 J-0.928
N3265 G1 X28.155 Y37.461
N3270 G2 X28.175 Y37.441 I-0.924 J-0.906
N3275 G1 X28.215 Y37.397
N3280 G2 X28.229 Y37.383 I-0.943 J-0.886
N3285 G1 X28.269 Y37.339
N3290 G2 X28.282 Y37.324 I-0.956 J-0.871
N3295 G1 X28.322 Y37.279
N3300 G2 X28.329 Y37.27 I-0.969 J-0.857
N3305 G1 X28.369 Y37.225
N3310 X28.413 Y37.174
N3315 X28.455 Y37.124
N3320 G2 X28.598 Y36.919 I-0.986 J-0.837
N3325 G1 X28.627 Y36.866
N3330 X28.658 Y36.81
N3335 G2 X28.663 Y36.801 I-1.13 J-0.63
N3340 G1 X28.693 Y36.748
N3345 G2 X28.698 Y36.738 I-1.135 J-0.621
N3350 G1 X28.727 Y36.684
N3355 G2 X28.734 Y36.67 I-1.14 J-0.611
N3360 G1 X28.762 Y36.617
N3365 G2 X28.771 Y36.598 I-1.148 J-0.597
N3370 G1 X28.798 Y36.544
N3375 G2 X28.811 Y36.519 I-1.158 J-0.578
N3380 G1 X28.836 Y36.465
N3385 G2 X28.848 Y36.44 I-1.17 J-0.553
N3390 G1 X28.872 Y36.385
N3395 G2 X28.886 Y36.352 I-1.181 J-0.528
N3400 G1 X28.909 Y36.297
N3405 G2 X28.924 Y36.259 I-1.195 J-0.495
N3410 G1 X28.945 Y36.204
N3415 G2 X28.959 Y36.164 I-1.21 J-0.457
N3420 G1 X28.978 Y36.108
N3425 G2 X28.993 Y36.062 I-1.225 J-0.417
N3430 G1 X29.01 Y36.005
N3435 G2 X29.023 Y35.959 I-1.239 J-0.372
N3440 G1 X29.038 Y35.902
N3445 G2 X29.048 Y35.857 I-1.252 J-0.325
N3450 G1 X29.061 Y35.799
N3455 G2 X29.069 Y35.762 I-1.263 J-0.281
N3460 G1 X29.08 Y35.704
N3465 G2 X29.087 Y35.668 I-1.271 J-0.244
N3470 G1 X29.096 Y35.609
N3475 G2 X29.101 Y35.576 I-1.277 J-0.208
N3480 G1 X29.109 Y35.517
N3485 G2 X29.113 Y35.49 I-1.282 J-0.175
N3490 G1 X29.119 Y35.431
N3495 G2 X29.122 Y35.409 I-1.285 J-0.149
N3500 G1 X29.128 Y35.349
N3505 G2 X29.13 Y35.329 I-1.288 J-0.127
N3510 G1 X29.135 Y35.269
N3515 G2 X29.136 Y35.251 I-1.289 J-0.107
N3520 G1 X29.14 Y35.191
N3525 G2 X29.141 Y35.18 I-1.291 J-0.09
N3530 G1 X29.144 Y35.12
N3535 X29.148 Y35.052
N3540 X29.152 Y34.987
N3545 G2 Y34.849 I-1.292 J-0.068
N3550 G1 X29.148 Y34.779
N3555 X29.144 Y34.706
N3560 X29.138 Y34.627
N3565 G2 Y34.613 I-1.291 J0.084
N3570 G1 X29.132 Y34.544
N3575 G2 X29.131 Y34.527 I-1.29 J0.097
N3580 G1 X29.125 Y34.458
N3585 G2 X29.122 Y34.433 I-1.289 J0.114
N3590 G1 X29.115 Y34.365
N3595 G2 X29.112 Y34.34 I-1.286 J0.139
N3600 G1 X29.103 Y34.272
N3605 G2 X29.099 Y34.239 I-1.283 J0.164
N3610 G1 X29.088 Y34.171
N3615 G2 X29.082 Y34.134 I-1.279 J0.197
N3620 G1 X29.07 Y34.067
N3625 G2 X29.061 Y34.026 I-1.272 J0.235
N3630 G1 X29.047 Y33.96
N3635 G2 X29.036 Y33.915 I-1.264 J0.276
N3640 G1 X29.019 Y33.849
N3645 G2 X29.005 Y33.797 I-1.253 J0.321
N3650 G1 X28.985 Y33.733
N3655 G2 X28.968 Y33.68 I-1.239 J0.374
N3660 G1 X28.946 Y33.616
N3665 G2 X28.925 Y33.559 I-1.221 J0.426
N3670 G1 X28.9 Y33.497
N3675 G2 X28.879 Y33.449 I-1.2 J0.483
N3680 G1 X28.851 Y33.387
N3685 G2 X28.83 Y33.343 I-1.179 J0.532
N3690 G1 X28.8 Y33.282
N3695 G2 X28.781 Y33.245 I-1.158 J0.576
N3700 G1 X28.749 Y33.186
N3705 G2 X28.731 Y33.153 I-1.139 J0.613
N3710 G1 X28.697 Y33.094
N3715 G2 X28.681 Y33.068 I-1.121 J0.646
N3720 G1 X28.646 Y33.009
N3725 G2 X28.631 Y32.986 I-1.106 J0.672
N3730 G1 X28.594 Y32.928
N3735 G2 X28.584 Y32.912 I-1.091 J0.695
N3740 G1 X28.546 Y32.854
N3745 G2 X28.536 Y32.84 I-1.081 J0.711
N3750 G1 X28.498 Y32.783
N3755 X28.454 Y32.719
N3760 X28.41 Y32.656
N3765 G2 X28.229 Y32.447 I-1.063 J0.738
N3770 G1 X28.182 Y32.403
N3775 X28.133 Y32.358
N3780 G2 X28.126 Y32.351 I-0.88 J0.949
N3785 G1 X28.079 Y32.308
N3790 G2 X28.069 Y32.299 I-0.872 J0.955
N3795 G1 X28.022 Y32.257
N3800 G2 X28.008 Y32.245 I-0.863 J0.964
N3805 G1 X27.961 Y32.203
N3810 G2 X27.942 Y32.188 I-0.849 J0.976
N3815 G1 X27.894 Y32.147
N3820 G2 X27.874 Y32.131 I-0.831 J0.991
N3825 G1 X27.825 Y32.091
N3830 G2 X27.799 Y32.071 I-0.811 J1.008
N3835 G1 X27.749 Y32.033
N3840 G2 X27.719 Y32.01 I-0.785 J1.029
N3845 G1 X27.668 Y31.974
N3850 G2 X27.635 Y31.951 I-0.755 J1.051
N3855 G1 X27.584 Y31.917
N3860 G2 X27.542 Y31.89 I-0.722 J1.074
N3865 G1 X27.49 Y31.857
N3870 G2 X27.445 Y31.831 I-0.681 J1.1
N3875 G1 X27.391 Y31.8
N3880 G2 X27.345 Y31.776 I-0.636 J1.127
N3885 G1 X27.29 Y31.747
N3890 G2 X27.244 Y31.725 I-0.589 J1.152
N3895 G1 X27.188 Y31.699
N3900 G2 X27.146 Y31.681 I-0.544 J1.174
N3905 G1 X27.089 Y31.657
N3910 G2 X27.053 Y31.642 I-0.503 J1.192
N3915 G1 X26.995 Y31.62
N3920 G2 X26.96 Y31.607 I-0.467 J1.207
N3925 G1 X26.9 Y31.586
N3930 G2 X26.874 Y31.577 I-0.431 J1.22
N3935 G1 X26.814 Y31.557
N3940 G2 X26.788 Y31.549 I-0.405 J1.229
N3945 G1 X26.727 Y31.53
N3950 G2 X26.706 Y31.524 I-0.378 J1.237
N3955 G1 X26.645 Y31.506
N3960 G2 X26.629 Y31.502 I-0.357 J1.243
N3965 G1 X26.568 Y31.485
N3970 G2 X26.555 Y31.482 I-0.341 J1.248
N3975 G1 X26.493 Y31.465
N3980 X26.423 Y31.447
N3985 X26.358 Y31.431
N3990 G2 X26.178 Y31.399 I-0.318 J1.254
N3995 G1 X26.076 Y31.388
N4000 X25.971 Y31.377
N4005 X25.865 Y31.366
N4010 X25.758 Y31.355
N4015 X25.65 Y31.345
N4020 X25.54 Y31.335
N4025 X25.428 Y31.325
N4030 X25.315 Y31.317
N4035 G2 X25.304 Y31.316 I-0.098 J1.29
N4040 G1 X25.2 Y31.309
N4045 G2 X25.188 Y31.308 I-0.086 J1.291
N4050 G1 X25.085 Y31.302
N4055 G2 X25.073 I-0.074 J1.292
N4060 G1 X24.97 Y31.297
N4065 X24.858 Y31.292
N4070 G2 X24.847 I-0.054 J1.293
N4075 G1 X24.744 Y31.288
N4080 X24.633 Y31.285
N4085 X24.521 Y31.283
N4090 X24.411 Y31.281
N4095 X24.3 Y31.28
N4100 X24.191 Y31.279
N4105 X24.083
N4110 X23.976
N4115 X23.87 Y31.28
N4120 X23.762
N4125 X23.659 Y31.281
N4130 X23.558 Y31.282
N4135 X20.218
N4140 G2 X18.924 Y32.575 I0. J1.294
N4145 G1 Y37.361
N4150 G2 X20.03 Y38.64 I1.294 J0.
N4155 G3 X20.102 Y38.671 Z-0.179 I-0.023 J0.157
N4160 X20.141 Y38.713 Z-0.121 I-0.096 J0.127
N4165 X20.151 Y38.732 Z-0.041 I-0.135 J0.084
N4170 G0 Z15.75
(2D POCKET4)
N4180 M8
N4185 G0 X37.312 Y38.96
N4190 Z15.75
N4195 Z5.75
N4200 G1 Z3.409 F304.8
N4205 G3 X37.298 Y38.975 Z3.331 I-0.564 J-0.501
N4210 X37.258 Y39.014 Z3.273 I-0.55 J-0.516
N4215 X37.199 Y39.063 Z3.25 I-0.51 J-0.555
N4220 X36.297 Y37.855 Z3.167 I-0.451 J-0.604
N4225 X37.199 Y39.063 Z3.085 I0.451 J0.604
N4230 X36.297 Y37.855 Z3.002 I-0.451 J-0.604
N4235 X37.199 Y39.063 Z2.919 I0.451 J0.604
N4240 X36.297 Y37.855 Z2.836 I-0.451 J-0.604
N4245 X37.199 Y39.063 Z2.754 I0.451 J0.604
N4250 X36.297 Y37.855 Z2.671 I-0.451 J-0.604
N4255 X37.199 Y39.063 Z2.588 I0.451 J0.604
N4260 X36.297 Y37.855 Z2.505 I-0.451 J-0.604
N4265 X37.199 Y39.063 Z2.423 I0.451 J0.604
N4270 X36.297 Y37.855 Z2.34 I-0.451 J-0.604
N4275 X37.199 Y39.063 Z2.257 I0.451 J0.604
N4280 X36.297 Y37.855 Z2.175 I-0.451 J-0.604
N4285 X37.199 Y39.063 Z2.092 I0.451 J0.604
N4290 X36.297 Y37.855 Z2.009 I-0.451 J-0.604
N4295 X37.199 Y39.063 Z1.926 I0.451 J0.604
N4300 X36.297 Y37.855 Z1.844 I-0.451 J-0.604
N4305 X37.199 Y39.063 Z1.761 I0.451 J0.604
N4310 X36.297 Y37.855 Z1.678 I-0.451 J-0.604
N4315 X37.199 Y39.063 Z1.595 I0.451 J0.604
N4320 X36.297 Y37.855 Z1.513 I-0.451 J-0.604
N4325 X37.199 Y39.063 Z1.43 I0.451 J0.604
N4330 X36.297 Y37.855 Z1.347 I-0.451 J-0.604
N4335 X37.199 Y39.063 Z1.265 I0.451 J0.604
N4340 X36.297 Y37.855 Z1.182 I-0.451 J-0.604
N4345 X37.199 Y39.063 Z1.099 I0.451 J0.604
N4350 X36.297 Y37.855 Z1.016 I-0.451 J-0.604
N4355 X37.199 Y39.063 Z0.934 I0.451 J0.604
N4360 X36.297 Y37.855 Z0.851 I-0.451 J-0.604
N4365 X37.199 Y39.063 Z0.768 I0.451 J0.604
N4370 X36.297 Y37.855 Z0.686 I-0.451 J-0.604
N4375 X37.199 Y39.063 Z0.603 I0.451 J0.604
N4380 X36.297 Y37.855 Z0.52 I-0.451 J-0.604
N4385 X37.199 Y39.063 Z0.437 I0.451 J0.604
N4390 X36.297 Y37.855 Z0.355 I-0.451 J-0.604
N4395 X37.199 Y39.063 Z0.272 I0.451 J0.604
N4400 X36.297 Y37.855 Z0.189 I-0.451 J-0.604
N4405 X37.199 Y39.063 Z0.106 I0.451 J0.604
N4410 X36.297 Y37.855 Z0.024 I-0.451 J-0.604
N4415 X37.199 Y39.063 Z-0.059 I0.451 J0.604
N4420 X36.297 Y37.855 Z-0.142 I-0.451 J-0.604
N4425 X37.502 Y38.459 Z-0.2 I0.451 J0.604
N4430 X36.491 I-0.506 J0.
N4435 G1 Y38.066
N4440 G3 X36.719 Y38.001 I0.123 J0.
N4445 G2 X36.948 Y38.297 I1.554 J-0.97
N4450 G3 Y38.622 I-0.17 J0.163
N4455 G2 X36.73 Y38.899 I1.324 J1.266
N4460 G3 X36.491 Y38.829 I-0.11 J-0.07
N4465 G1 Y38.459
N4470 G2 X36.222 Y38.056 I-0.437 J0.
N4475 G3 X35.953 Y37.652 I0.168 J-0.403
N4480 G1 Y30.854
N4485 X36.979
N4490 Y37.031
N4495 G2 X38.272 Y38.325 I1.294 J0.
N4500 G1 X39.005
N4505 X39.083
N4510 X39.164 Y38.324
N4515 X39.244
N4520 X39.326 Y38.323
N4525 X39.409 Y38.322
N4530 G2 X39.419 Y38.321 I-0.02 J-1.294
N4535 G1 X39.496 Y38.32
N4540 G2 X39.506 Y38.319 I-0.03 J-1.293
N4545 G1 X39.583 Y38.317
N4550 G2 X39.596 Y38.316 I-0.041 J-1.293
N4555 G1 X39.673 Y38.313
N4560 G2 X39.686 I-0.054 J-1.293
N4565 G1 X39.763 Y38.309
N4570 G2 X39.778 Y38.308 I-0.068 J-1.292
N4575 G1 X39.854 Y38.303
N4580 G2 X39.875 Y38.301 I-0.083 J-1.291
N4585 G1 X39.951 Y38.295
N4590 G2 X39.969 Y38.294 I-0.103 J-1.29
N4595 G1 X40.045 Y38.286
N4600 G2 X40.067 Y38.284 I-0.122 J-1.288
N4605 G1 X40.143 Y38.276
N4610 G2 X40.165 Y38.273 I-0.144 J-1.286
N4615 G1 X40.241 Y38.263
N4620 G2 X40.268 Y38.259 I-0.166 J-1.283
N4625 G1 X40.343 Y38.248
N4630 G2 X40.366 Y38.244 I-0.193 J-1.279
N4635 G1 X40.441 Y38.232
N4640 G2 X40.461 Y38.228 I-0.215 J-1.276
N4645 G1 X40.536 Y38.214
N4650 G2 X40.554 Y38.211 I-0.235 J-1.272
N4655 G1 X40.629 Y38.196
N4660 G2 X40.644 Y38.193 I-0.254 J-1.269
N4665 G1 X40.719 Y38.177
N4670 G2 X40.731 Y38.174 I-0.269 J-1.266
N4675 G1 X40.806 Y38.158
N4680 G2 X40.817 Y38.155 I-0.281 J-1.263
N4685 G1 X40.892 Y38.138
N4690 X40.973 Y38.118
N4695 X41.052 Y38.099
N4700 X41.13 Y38.08
N4705 G2 X41.343 Y38.008 I-0.307 J-1.257
N4710 G1 X41.394 Y37.986
N4715 X41.448 Y37.962
N4720 X41.506 Y37.936
N4725 G2 X41.516 Y37.932 I-0.53 J-1.18
N4730 G1 X41.566 Y37.909
N4735 G2 X41.578 Y37.903 I-0.539 J-1.176
N4740 G1 X41.628 Y37.88
N4745 G2 X41.644 Y37.872 I-0.55 J-1.171
N4750 G1 X41.694 Y37.848
N4755 G2 X41.712 Y37.838 I-0.566 J-1.163
N4760 G1 X41.762 Y37.813
N4765 G2 X41.784 Y37.802 I-0.585 J-1.154
N4770 G1 X41.833 Y37.776
N4775 G2 X41.857 Y37.763 I-0.607 J-1.142
N4780 G1 X41.905 Y37.736
N4785 G2 X41.932 Y37.72 I-0.631 J-1.129
N4790 G1 X41.98 Y37.692
N4795 G2 X42.011 Y37.673 I-0.659 J-1.113
N4800 G1 X42.058 Y37.643
N4805 G2 X42.088 Y37.624 I-0.691 J-1.094
N4810 G1 X42.134 Y37.593
N4815 G2 X42.167 Y37.57 I-0.721 J-1.074
N4820 G1 X42.211 Y37.538
N4825 G2 X42.239 Y37.518 I-0.754 J-1.051
N4830 G1 X42.283 Y37.485
N4835 G2 X42.308 Y37.465 I-0.782 J-1.031
N4840 G1 X42.351 Y37.431
N4845 G2 X42.372 Y37.414 I-0.807 J-1.011
N4850 G1 X42.414 Y37.378
N4855 G2 X42.433 Y37.362 I-0.828 J-0.994
N4860 G1 X42.475 Y37.326
N4865 G2 X42.493 Y37.31 I-0.847 J-0.978
N4870 G1 X42.534 Y37.273
N4875 G2 X42.547 Y37.261 I-0.864 J-0.963
N4880 G1 X42.588 Y37.223
N4885 G2 X42.599 Y37.213 I-0.878 J-0.95
N4890 G1 X42.639 Y37.175
N4895 G2 X42.649 Y37.166 I-0.889 J-0.94
N4900 G1 X42.689 Y37.127
N4905 X42.735 Y37.082
N4910 X42.778 Y37.04
N4915 X42.821 Y36.997
N4920 G2 X42.915 Y36.894 I-0.911 J-0.918
N4925 G1 X43. Y36.789
N4930 X43.085 Y36.683
N4935 X43.172 Y36.575
N4940 X43.259 Y36.468
N4945 X43.346 Y36.358
N4950 X43.434 Y36.247
N4955 X43.522 Y36.134
N4960 X43.609 Y36.021
N4965 G2 X43.615 Y36.013 I-1.026 J-0.788
N4970 G1 X43.697 Y35.905
N4975 X43.783 Y35.789
N4980 G2 X43.789 Y35.78 I-1.038 J-0.773
N4985 G1 X43.869 Y35.671
N4990 X43.953 Y35.555
N4995 X44.036 Y35.438
N5000 X44.119 Y35.321
N5005 X44.2 Y35.203
N5010 X44.28 Y35.087
N5015 X44.359 Y34.971
N5020 X44.438 Y34.855
N5025 X44.515 Y34.739
N5030 X44.593 Y34.623
N5035 X44.669 Y34.508
N5040 X44.744 Y34.395
N5045 X44.82 Y34.279
N5050 X44.892 Y34.171
N5055 X47.117 Y30.854
N5060 X48.412
N5065 X47.466 Y32.365
N5070 X47.385 Y32.496
N5075 X47.307 Y32.621
N5080 X47.23 Y32.745
N5085 X47.153 Y32.868
N5090 X47.076 Y32.99
N5095 X46.999 Y33.111
N5100 X46.922 Y33.231
N5105 X46.845 Y33.349
N5110 X46.768 Y33.466
N5115 X46.691 Y33.581
N5120 X46.613 Y33.695
N5125 X46.535 Y33.808
N5130 X46.457 Y33.918
N5135 X46.378 Y34.028
N5140 X46.298 Y34.136
N5145 X46.216 Y34.245
N5150 X46.132 Y34.353
N5155 X46.046 Y34.463
N5160 X45.959 Y34.573
N5165 X45.87 Y34.684
N5170 X45.78 Y34.795
N5175 X45.688 Y34.907
N5180 X45.595 Y35.021
N5185 X45.545 Y35.08
N5190 X45.524 Y35.102
N5195 X45.452 Y35.171
N5200 X45.382 Y35.239
N5205 X45.314 Y35.305
N5210 X45.246 Y35.369
N5215 X45.18 Y35.43
N5220 X45.115 Y35.49
N5225 X45.05 Y35.547
N5230 X44.986 Y35.603
N5235 X44.923 Y35.656
N5240 X44.862 Y35.706
N5245 X44.8 Y35.755
N5250 X44.736 Y35.803
N5255 X44.669 Y35.852
N5260 X44.601 Y35.901
N5265 X44.531 Y35.949
N5270 X44.458 Y35.999
N5275 X44.383 Y36.048
N5280 X44.306 Y36.098
N5285 X44.227 Y36.149
N5290 X44.146 Y36.2
N5295 X44.063 Y36.251
N5300 X43.978 Y36.304
N5305 X43.891 Y36.357
N5310 G2 X44.333 Y38.73 I0.68 J1.101
N5315 G1 X44.497 Y38.761
N5320 X44.656 Y38.791
N5325 X44.811 Y38.821
N5330 X44.961 Y38.852
N5335 X45.106 Y38.884
N5340 X45.245 Y38.917
N5345 X45.379 Y38.952
N5350 X45.508 Y38.988
N5355 X45.63 Y39.026
N5360 X45.746 Y39.066
N5365 X45.855 Y39.109
N5370 X45.959 Y39.153
N5375 X46.057 Y39.199
N5380 X46.153 Y39.25
N5385 X46.252 Y39.308
N5390 X46.354 Y39.372
N5395 X46.459 Y39.443
N5400 X46.566 Y39.52
N5405 X46.677 Y39.603
N5410 X46.79 Y39.691
N5415 X46.907 Y39.786
N5420 X47.027 Y39.885
N5425 X47.15 Y39.988
N5430 X47.233 Y40.102
N5435 X47.314 Y40.217
N5440 X47.39 Y40.328
N5445 X47.461 Y40.436
N5450 X47.527 Y40.539
N5455 X47.587 Y40.639
N5460 X47.641 Y40.735
N5465 X47.689 Y40.828
N5470 X47.731 Y40.916
N5475 X47.767 Y41.001
N5480 X47.798 Y41.083
N5485 X47.826 Y41.169
N5490 X47.852 Y41.262
N5495 X47.875 Y41.361
N5500 X47.897 Y41.467
N5505 X47.916 Y41.579
N5510 X47.933 Y41.697
N5515 X47.948 Y41.821
N5520 X47.961 Y41.952
N5525 X47.973 Y42.088
N5530 X47.984 Y42.228
N5535 X47.994 Y42.374
N5540 X47.999 Y42.444
N5545 X47.997 Y42.485
N5550 X47.989 Y42.605
N5555 X47.982 Y42.72
N5560 X47.973 Y42.831
N5565 X47.964 Y42.938
N5570 X47.953 Y43.041
N5575 X47.942 Y43.139
N5580 X47.928 Y43.234
N5585 X47.914 Y43.323
N5590 X47.898 Y43.407
N5595 X47.88 Y43.488
N5600 X47.861 Y43.564
N5605 X47.839 Y43.638
N5610 X47.814 Y43.714
N5615 X47.785 Y43.794
N5620 X47.752 Y43.877
N5625 X47.716 Y43.963
N5630 X47.676 Y44.051
N5635 X47.632 Y44.144
N5640 X47.585 Y44.24
N5645 X47.535 Y44.339
N5650 X47.482 Y44.441
N5655 X47.427 Y44.546
N5660 X47.416 Y44.568
N5665 X47.406 Y44.581
N5670 X47.34 Y44.669
N5675 X47.277 Y44.753
N5680 X47.216 Y44.832
N5685 X47.157 Y44.907
N5690 X47.099 Y44.977
N5695 X47.043 Y45.043
N5700 X46.989 Y45.103
N5705 X46.938 Y45.158
N5710 X46.888 Y45.207
N5715 X46.84 Y45.252
N5720 X46.794 Y45.291
N5725 X46.746 Y45.328
N5730 X46.695 Y45.366
N5735 X46.637 Y45.405
N5740 X46.574 Y45.444
N5745 X46.506 Y45.485
N5750 X46.432 Y45.526
N5755 X46.352 Y45.568
N5760 X46.267 Y45.611
N5765 X46.177 Y45.655
N5770 X46.083 Y45.7
N5775 X45.992 Y45.743
N5780 X45.941 Y45.756
N5785 X45.775 Y45.797
N5790 X45.611 Y45.837
N5795 X45.449 Y45.876
N5800 X45.29 Y45.913
N5805 X45.133 Y45.947
N5810 X44.979 Y45.979
N5815 X44.827 Y46.008
N5820 X44.677 Y46.034
N5825 X44.529 Y46.057
N5830 X44.381 Y46.077
N5835 X44.231 Y46.094
N5840 X44.079 Y46.109
N5845 X43.924 Y46.121
N5850 X43.767 Y46.132
N5855 X43.609 Y46.14
N5860 X43.447 Y46.147
N5865 X43.284 Y46.152
N5870 X43.119 Y46.156
N5875 X42.951 Y46.158
N5880 X42.782 Y46.16
N5885 X42.61 Y46.161
N5890 X42.437 Y46.162
N5895 X42.263
N5900 X35.953
N5905 Y37.652
N5910 G3 X36.305 Y37.522 I0.2 J0.
N5915 G1 X37.339 Y38.731
N5920 G3 X37.332 Y38.998 I-0.152 J0.13
N5925 G2 X36.979 Y39.887 I0.94 J0.889
N5930 G1 Y44.428
N5935 G2 X38.272 Y45.722 I1.294 J0.
N5940 G1 X41.089
N5945 X41.305 Y45.723
N5950 X41.416 Y45.724
N5955 X41.527
N5960 X41.638 Y45.725
N5965 X41.752
N5970 X41.863 Y45.724
N5975 X41.976
N5980 X42.09 Y45.723
N5985 X42.205 Y45.722
N5990 X42.318 Y45.721
N5995 X42.432 Y45.719
N6000 X42.548 Y45.716
N6005 X42.664 Y45.714
N6010 X42.78 Y45.71
N6015 X42.895 Y45.706
N6020 X43.012 Y45.701
N6025 X43.129 Y45.696
N6030 X43.242 Y45.691
N6035 X43.358 Y45.685
N6040 X43.471 Y45.678
N6045 X43.582 Y45.672
N6050 X43.696 Y45.665
N6055 X43.805 Y45.659
N6060 G2 X44.011 Y45.63 I-0.076 J-1.291
N6065 G1 X44.076 Y45.615
N6070 X44.146 Y45.6
N6075 X44.218 Y45.582
N6080 G2 X44.231 Y45.579 I-0.296 J-1.259
N6085 G1 X44.295 Y45.564
N6090 G2 X44.312 Y45.559 I-0.309 J-1.256
N6095 G1 X44.375 Y45.543
N6100 G2 X44.396 Y45.537 I-0.326 J-1.252
N6105 G1 X44.459 Y45.52
N6110 G2 X44.484 Y45.512 I-0.347 J-1.246
N6115 G1 X44.547 Y45.494
N6120 G2 X44.578 Y45.484 I-0.372 J-1.239
N6125 G1 X44.639 Y45.464
N6130 G2 X44.672 Y45.453 I-0.404 J-1.229
N6135 G1 X44.732 Y45.431
N6140 G2 X44.773 Y45.416 I-0.436 J-1.218
N6145 G1 X44.832 Y45.392
N6150 G2 X44.875 Y45.374 I-0.476 J-1.203
N6155 G1 X44.933 Y45.349
N6160 G2 X44.978 Y45.328 I-0.519 J-1.185
N6165 G1 X45.036 Y45.3
N6170 G2 X45.087 Y45.274 I-0.564 J-1.164
N6175 G1 X45.143 Y45.244
N6180 G2 X45.192 Y45.216 I-0.615 J-1.138
N6185 G1 X45.246 Y45.183
N6190 G2 X45.289 Y45.156 I-0.664 J-1.11
N6195 G1 X45.343 Y45.121
N6200 G2 X45.381 Y45.095 I-0.707 J-1.084
N6205 G1 X45.434 Y45.058
N6210 G2 X45.467 Y45.034 I-0.745 J-1.058
N6215 G1 X45.519 Y44.995
N6220 G2 X45.545 Y44.975 I-0.778 J-1.033
N6225 G1 X45.596 Y44.935
N6230 G2 X45.62 Y44.915 I-0.805 J-1.013
N6235 G1 X45.67 Y44.873
N6240 G2 X45.688 Y44.858 I-0.83 J-0.993
N6245 G1 X45.737 Y44.815
N6250 G2 X45.753 Y44.801 I-0.847 J-0.978
N6255 G1 X45.802 Y44.757
N6260 G2 X45.812 Y44.748 I-0.863 J-0.964
N6265 G1 X45.861 Y44.703
N6270 X45.916 Y44.653
N6275 X45.969 Y44.603
N6280 G2 X46.148 Y44.395 I-0.885 J-0.944
N6285 G1 X46.185 Y44.341
N6290 X46.226 Y44.282
N6295 G2 X46.232 Y44.273 I-1.067 J-0.732
N6300 G1 X46.269 Y44.218
N6305 G2 X46.276 Y44.207 I-1.073 J-0.723
N6310 G1 X46.313 Y44.152
N6315 G2 X46.324 Y44.134 I-1.081 J-0.711
N6320 G1 X46.359 Y44.079
N6325 G2 X46.373 Y44.057 I-1.092 J-0.694
N6330 G1 X46.407 Y44.001
N6335 G2 X46.422 Y43.975 I-1.106 J-0.672
N6340 G1 X46.455 Y43.918
N6345 G2 X46.473 Y43.885 I-1.121 J-0.645
N6350 G1 X46.504 Y43.828
N6355 G2 X46.522 Y43.793 I-1.14 J-0.612
N6360 G1 X46.551 Y43.735
N6365 G2 X46.572 Y43.69 I-1.158 J-0.577
N6370 G1 X46.599 Y43.631
N6375 G2 X46.619 Y43.584 I-1.18 J-0.531
N6380 G1 X46.643 Y43.524
N6385 G2 X46.664 Y43.468 I-1.2 J-0.484
N6390 G1 X46.685 Y43.408
N6395 G2 X46.703 Y43.355 I-1.221 J-0.427
N6400 G1 X46.721 Y43.294
N6405 G2 X46.735 Y43.242 I-1.238 J-0.374
N6410 G1 X46.751 Y43.18
N6415 G2 X46.763 Y43.133 I-1.253 J-0.323
N6420 G1 X46.776 Y43.07
N6425 G2 X46.785 Y43.028 I-1.264 J-0.276
N6430 G1 X46.796 Y42.965
N6435 G2 X46.802 Y42.93 I-1.272 J-0.234
N6440 G1 X46.812 Y42.866
N6445 G2 X46.817 Y42.831 I-1.278 J-0.199
N6450 G1 X46.826 Y42.767
N6455 G2 X46.829 Y42.74 I-1.283 J-0.165
N6460 G1 X46.836 Y42.675
N6465 G2 X46.838 Y42.653 I-1.286 J-0.138
N6470 G1 X46.844 Y42.587
N6475 G2 X46.845 Y42.569 I-1.289 J-0.116
N6480 G1 X46.85 Y42.503
N6485 G2 X46.851 Y42.491 I-1.29 J-0.098
N6490 G1 X46.855 Y42.425
N6495 X46.86 Y42.349
N6500 X46.864 Y42.277
N6505 G2 X46.865 Y42.148 I-1.292 J-0.07
N6510 G1 X46.862 Y42.089
N6515 X46.859 Y42.025
N6520 X46.855 Y41.957
N6525 X46.851 Y41.888
N6530 G2 X46.85 Y41.873 I-1.291 J0.081
N6535 G1 X46.845 Y41.814
N6540 G2 X46.844 Y41.794 I-1.29 J0.096
N6545 G1 X46.838 Y41.735
N6550 G2 X46.836 Y41.715 I-1.289 J0.116
N6555 G1 X46.83 Y41.657
N6560 G2 X46.827 Y41.628 I-1.287 J0.136
N6565 G1 X46.819 Y41.569
N6570 G2 X46.815 Y41.54 I-1.283 J0.165
N6575 G1 X46.806 Y41.482
N6580 G2 X46.801 Y41.449 I-1.279 J0.195
N6585 G1 X46.79 Y41.391
N6590 G2 X46.783 Y41.353 I-1.273 J0.229
N6595 G1 X46.771 Y41.296
N6600 G2 X46.762 Y41.255 I-1.266 J0.267
N6605 G1 X46.748 Y41.198
N6610 G2 X46.736 Y41.154 I-1.257 J0.308
N6615 G1 X46.72 Y41.098
N6620 G2 X46.706 Y41.052 I-1.245 J0.352
N6625 G1 X46.688 Y40.996
N6630 G2 X46.674 Y40.955 I-1.231 J0.399
N6635 G1 X46.654 Y40.9
N6640 G2 X46.64 Y40.864 I-1.217 J0.44
N6645 G1 X46.619 Y40.81
N6650 G2 X46.605 Y40.777 I-1.203 J0.477
N6655 G1 X46.582 Y40.724
N6660 G2 X46.571 Y40.697 I-1.189 J0.509
N6665 G1 X46.546 Y40.644
N6670 G2 X46.536 Y40.621 I-1.178 J0.536
N6675 G1 X46.511 Y40.568
N6680 G2 X46.501 Y40.548 I-1.167 J0.558
N6685 G1 X46.474 Y40.495
N6690 G2 X46.467 Y40.481 I-1.157 J0.579
N6695 G1 X46.44 Y40.428
N6700 G2 X46.434 Y40.417 I-1.15 J0.593
N6705 G1 X46.407 Y40.365
N6710 X46.374 Y40.304
N6715 X46.344 Y40.248
N6720 G2 X46.209 Y40.047 I-1.138 J0.616
N6725 G1 X46.175 Y40.005
N6730 X46.138 Y39.96
N6735 X46.097 Y39.911
N6740 G2 X46.09 Y39.902 I-0.995 J0.827
N6745 G1 X46.055 Y39.861
N6750 G2 X46.044 Y39.848 I-0.987 J0.836
N6755 G1 X46.008 Y39.807
N6760 G2 X45.993 Y39.79 I-0.976 J0.849
N6765 G1 X45.957 Y39.75
N6770 G2 X45.939 Y39.73 I-0.961 J0.867
N6775 G1 X45.902 Y39.691
N6780 G2 X45.882 Y39.67 I-0.942 J0.887
N6785 G1 X45.844 Y39.632
N6790 G2 X45.819 Y39.607 I-0.922 J0.908
N6795 G1 X45.78 Y39.57
N6800 G2 X45.75 Y39.541 I-0.896 J0.933
N6805 G1 X45.711 Y39.506
N6810 G2 X45.676 Y39.476 I-0.866 J0.961
N6815 G1 X45.636 Y39.442
N6820 G2 X45.598 Y39.412 I-0.832 J0.991
N6825 G1 X45.556 Y39.379
N6830 G2 X45.514 Y39.348 I-0.793 J1.022
N6835 G1 X45.471 Y39.317
N6840 G2 X45.431 Y39.29 I-0.751 J1.053
N6845 G1 X45.387 Y39.261
N6850 G2 X45.35 Y39.237 I-0.711 J1.081
N6855 G1 X45.305 Y39.21
N6860 G2 X45.271 Y39.19 I-0.674 J1.104
N6865 G1 X45.224 Y39.163
N6870 G2 X45.193 Y39.146 I-0.64 J1.124
N6875 G1 X45.146 Y39.121
N6880 G2 X45.118 Y39.106 I-0.608 J1.142
N6885 G1 X45.07 Y39.082
N6890 G2 X45.051 Y39.073 I-0.581 J1.156
N6895 G1 X45.002 Y39.049
N6900 G2 X44.981 Y39.039 I-0.561 J1.166
N6905 G1 X44.932 Y39.017
N6910 G2 X44.915 Y39.01 I-0.54 J1.176
N6915 G1 X44.866 Y38.988
N6920 G2 X44.856 Y38.983 I-0.523 J1.183
N6925 G1 X44.806 Y38.962
N6930 X44.748 Y38.937
N6935 X44.693 Y38.914
N6940 G2 X44.405 Y38.831 I-0.5 J1.193
N6945 G1 X44.271 Y38.809
N6950 X44.134 Y38.786
N6955 X43.996 Y38.764
N6960 X43.855 Y38.742
N6965 X43.711 Y38.721
N6970 G2 X43.7 Y38.719 I-0.189 J1.28
N6975 G1 X43.565 Y38.7
N6980 G2 X43.552 Y38.699 I-0.178 J1.281
N6985 G1 X43.417 Y38.681
N6990 G2 X43.402 Y38.679 I-0.165 J1.283
N6995 G1 X43.267 Y38.664
N7000 G2 X43.249 Y38.662 I-0.15 J1.285
N7005 G1 X43.114 Y38.648
N7010 G2 X43.096 Y38.646 I-0.132 J1.287
N7015 G1 X42.961 Y38.634
N7020 G2 X42.943 Y38.633 I-0.114 J1.289
N7025 G1 X42.808 Y38.623
N7030 G2 X42.793 Y38.622 I-0.095 J1.29
N7035 G1 X42.657 Y38.613
N7040 G2 X42.643 I-0.08 J1.291
N7045 G1 X42.507 Y38.606
N7050 G2 X42.493 Y38.605 I-0.066 J1.292
N7055 G1 X42.357 Y38.6
N7060 G2 X42.345 Y38.599 I-0.051 J1.293
N7065 G1 X42.209 Y38.595
N7070 G2 X42.199 I-0.039 J1.293
N7075 G1 X42.063 Y38.592
N7080 X41.918 Y38.59
N7085 X41.773 Y38.588
N7090 X41.629
N7095 X41.487
N7100 X41.347 Y38.589
N7105 X41.207 Y38.59
N7110 X41.068 Y38.592
N7115 X40.938 Y38.594
N7120 X38.272
N7125 G2 X37.332 Y38.998 I0. J1.294
N7130 G3 X37.266 Y39.04 Z-0.179 I-0.115 J-0.109
N7135 X37.209 Y39.048 Z-0.121 I-0.049 J-0.151
N7140 X37.188 Y39.045 Z-0.041 I0.008 J-0.159
N7145 G0 Z15.75
(2D POCKET5)
N7155 M8
N7160 G0 X53.885 Y32.162
N7165 Z15.75
N7170 Z5.75
N7175 G1 Z3.409 F304.8
N7180 G19 G2 Y32.009 Z3.25 J-0.159 K0.
N7185 G1 Y30.854 Z3.21
N7190 X54.911 Z3.174
N7195 Y46.162 Z2.639
N7200 X53.885 Z2.603
N7205 Y30.854 Z2.069
N7210 X54.911 Z2.033
N7215 Y46.162 Z1.499
N7220 X53.885 Z1.463
N7225 Y30.854 Z0.928
N7230 X54.911 Z0.892
N7235 Y46.162 Z0.358
N7240 X53.885 Z0.322
N7245 Y31.216 Z-0.2
N7250 Y30.854
N7255 X54.911
N7260 Y46.162
N7265 X53.885
N7270 Y31.216
N7275 G17 G3 X53.904 Y31.14 Z-0.179 I0.159 J0.
N7280 X53.941 Y31.095 Z-0.121 I0.139 J0.076
N7285 X53.958 Y31.082 Z-0.041 I0.103 J0.121
N7290 G0 Z15.75
(2D POCKET6)
N7300 M8
N7305 G0 X70.587 Y34.923
N7310 Z15.75
N7315 Z5.75
N7320 G1 Z3.409 F304.8
N7325 G3 X70.605 Y34.914 Z3.331 I0.337 J0.674
N7330 X70.656 Y34.892 Z3.273 I0.319 J0.683
N7335 X70.73 Y34.869 Z3.25 I0.268 J0.705
N7340 X71.118 Y36.326 Z3.167 I0.194 J0.729
N7345 X70.73 Y34.869 Z3.085 I-0.194 J-0.729
N7350 X71.118 Y36.326 Z3.002 I0.194 J0.729
N7355 X70.73 Y34.869 Z2.919 I-0.194 J-0.729
N7360 X71.118 Y36.326 Z2.836 I0.194 J0.729
N7365 X70.73 Y34.869 Z2.754 I-0.194 J-0.729
N7370 X71.118 Y36.326 Z2.671 I0.194 J0.729
N7375 X70.73 Y34.869 Z2.588 I-0.194 J-0.729
N7380 X71.118 Y36.326 Z2.505 I0.194 J0.729
N7385 X70.73 Y34.869 Z2.423 I-0.194 J-0.729
N7390 X71.118 Y36.326 Z2.34 I0.194 J0.729
N7395 X70.73 Y34.869 Z2.257 I-0.194 J-0.729
N7400 X71.118 Y36.326 Z2.175 I0.194 J0.729
N7405 X70.73 Y34.869 Z2.092 I-0.194 J-0.729
N7410 X71.118 Y36.326 Z2.009 I0.194 J0.729
N7415 X70.73 Y34.869 Z1.926 I-0.194 J-0.729
N7420 X71.118 Y36.326 Z1.844 I0.194 J0.729
N7425 X70.73 Y34.869 Z1.761 I-0.194 J-0.729
N7430 X71.118 Y36.326 Z1.678 I0.194 J0.729
N7435 X70.73 Y34.869 Z1.595 I-0.194 J-0.729
N7440 X71.118 Y36.326 Z1.513 I0.194 J0.729
N7445 X70.73 Y34.869 Z1.43 I-0.194 J-0.729
N7450 X71.118 Y36.326 Z1.347 I0.194 J0.729
N7455 X70.73 Y34.869 Z1.265 I-0.194 J-0.729
N7460 X71.118 Y36.326 Z1.182 I0.194 J0.729
N7465 X70.73 Y34.869 Z1.099 I-0.194 J-0.729
N7470 X71.118 Y36.326 Z1.016 I0.194 J0.729
N7475 X70.73 Y34.869 Z0.934 I-0.194 J-0.729
N7480 X71.118 Y36.326 Z0.851 I0.194 J0.729
N7485 X70.73 Y34.869 Z0.768 I-0.194 J-0.729
N7490 X71.118 Y36.326 Z0.686 I0.194 J0.729
N7495 X70.73 Y34.869 Z0.603 I-0.194 J-0.729
N7500 X71.118 Y36.326 Z0.52 I0.194 J0.729
N7505 X70.73 Y34.869 Z0.437 I-0.194 J-0.729
N7510 X71.118 Y36.326 Z0.355 I0.194 J0.729
N7515 X70.73 Y34.869 Z0.272 I-0.194 J-0.729
N7520 X71.118 Y36.326 Z0.189 I0.194 J0.729
N7525 X70.73 Y34.869 Z0.106 I-0.194 J-0.729
N7530 X71.118 Y36.326 Z0.024 I0.194 J0.729
N7535 X70.73 Y34.869 Z-0.059 I-0.194 J-0.729
N7540 X71.118 Y36.326 Z-0.142 I0.194 J0.729
N7545 X70.224 Y35.317 Z-0.2 I-0.194 J-0.729
N7550 X71.292 Y35.745 I0.534 J0.214
N7555 G1 X71.165 Y36.062
N7560 G3 X70.909 Y36.054 I-0.126 J-0.051
N7565 G2 X70.769 Y35.734 I-1.778 J0.586
N7570 G3 X70.899 Y35.396 I0.207 J-0.115
N7575 G2 X71.239 Y35.239 I-0.608 J-1.77
N7580 G3 X71.429 Y35.403 I0.067 J0.114
N7585 G1 X71.292 Y35.745
N7590 G3 X71.177 Y35.783 I-0.074 J-0.03
N7595 G1 X70.776 Y35.542
N7600 G2 X70.429 Y35.391 I-0.756 J1.259
N7605 G3 X70.067 Y35.278 I2.608 J-8.996
N7610 G2 X67.164 Y34.97 I-2.149 J6.431
N7615 G3 X64.249 Y35.133 I-2.915 J-26.055
N7620 G2 X63.369 Y35.218 I0. J4.593
N7625 X62.651 Y35.734 I0.203 J1.038
N7630 X62.549 Y35.945 I1.597 J0.906
N7635 G3 X62.285 Y35.943 I-0.132 J-0.054
N7640 G1 X62.079 Y35.415
N7645 G3 X62.272 Y35.245 I0.128 J-0.05
N7650 G2 X62.551 Y35.365 I0.866 J-1.619
N7655 G3 X62.673 Y35.697 I-0.073 J0.215
N7660 G2 X62.651 Y35.734 I1.576 J0.943
N7665 G3 X62.597 Y35.791 Z-0.179 I-0.138 J-0.078
N7670 X62.543 Y35.812 Z-0.121 I-0.084 J-0.135
N7675 X62.522 Y35.814 Z-0.041 I-0.03 J-0.156
N7680 G0 Z5.75
N7685 X66.736 Y44.617
N7690 G1 Z3.409 F304.8
N7695 G3 X66.754 Y44.608 Z3.331 I0.337 J0.674
N7700 X66.806 Y44.587 Z3.273 I0.319 J0.683
N7705 X66.879 Y44.563 Z3.25 I0.268 J0.705
N7710 X67.268 Y46.02 Z3.167 I0.194 J0.729
N7715 X66.879 Y44.563 Z3.085 I-0.194 J-0.729
N7720 X67.268 Y46.02 Z3.002 I0.194 J0.729
N7725 X66.879 Y44.563 Z2.919 I-0.194 J-0.729
N7730 X67.268 Y46.02 Z2.836 I0.194 J0.729
N7735 X66.879 Y44.563 Z2.754 I-0.194 J-0.729
N7740 X67.268 Y46.02 Z2.671 I0.194 J0.729
N7745 X66.879 Y44.563 Z2.588 I-0.194 J-0.729
N7750 X67.268 Y46.02 Z2.505 I0.194 J0.729
N7755 X66.879 Y44.563 Z2.423 I-0.194 J-0.729
N7760 X67.268 Y46.02 Z2.34 I0.194 J0.729
N7765 X66.879 Y44.563 Z2.257 I-0.194 J-0.729
N7770 X67.268 Y46.02 Z2.175 I0.194 J0.729
N7775 X66.879 Y44.563 Z2.092 I-0.194 J-0.729
N7780 X67.268 Y46.02 Z2.009 I0.194 J0.729
N7785 X66.879 Y44.563 Z1.926 I-0.194 J-0.729
N7790 X67.268 Y46.02 Z1.844 I0.194 J0.729
N7795 X66.879 Y44.563 Z1.761 I-0.194 J-0.729
N7800 X67.268 Y46.02 Z1.678 I0.194 J0.729
N7805 X66.879 Y44.563 Z1.595 I-0.194 J-0.729
N7810 X67.268 Y46.02 Z1.513 I0.194 J0.729
N7815 X66.879 Y44.563 Z1.43 I-0.194 J-0.729
N7820 X67.268 Y46.02 Z1.347 I0.194 J0.729
N7825 X66.879 Y44.563 Z1.265 I-0.194 J-0.729
N7830 X67.268 Y46.02 Z1.182 I0.194 J0.729
N7835 X66.879 Y44.563 Z1.099 I-0.194 J-0.729
N7840 X67.268 Y46.02 Z1.016 I0.194 J0.729
N7845 X66.879 Y44.563 Z0.934 I-0.194 J-0.729
N7850 X67.268 Y46.02 Z0.851 I0.194 J0.729
N7855 X66.879 Y44.563 Z0.768 I-0.194 J-0.729
N7860 X67.268 Y46.02 Z0.686 I0.194 J0.729
N7865 X66.879 Y44.563 Z0.603 I-0.194 J-0.729
N7870 X67.268 Y46.02 Z0.52 I0.194 J0.729
N7875 X66.879 Y44.563 Z0.437 I-0.194 J-0.729
N7880 X67.268 Y46.02 Z0.355 I0.194 J0.729
N7885 X66.879 Y44.563 Z0.272 I-0.194 J-0.729
N7890 X67.268 Y46.02 Z0.189 I0.194 J0.729
N7895 X66.879 Y44.563 Z0.106 I-0.194 J-0.729
N7900 X67.268 Y46.02 Z0.024 I0.194 J0.729
N7905 X66.879 Y44.563 Z-0.059 I-0.194 J-0.729
N7910 X67.268 Y46.02 Z-0.142 I0.194 J0.729
N7915 X66.373 Y45.011 Z-0.2 I-0.194 J-0.729
N7920 X67.44 Y45.438 I0.533 J0.213
N7925 G1 X67.43 Y45.463
N7930 G3 X67.211 Y45.611 I-0.218 J-0.087
N7935 G1 X66.22
N7940 G3 X66.001 Y45.461 I0. J-0.235
N7945 G1 X65.918 Y45.248
N7950 G3 X66.112 Y45.041 I0.147 J-0.057
N7955 G2 X67.348 Y44.995 I0.554 J-1.76
N7960 G3 X67.54 Y45.187 I0.055 J0.137
N7965 G1 X67.442 Y45.431
N7970 X67.44 Y45.438
N7975 G2 X67.569 Y45.795 I0.264 J0.106
N7980 G3 X67.476 Y46.162 I-0.093 J0.172
N7985 G1 X65.683
N7990 X59.72 Y30.854
N7995 X60.755
N8000 X61.922 Y34.067
N8005 G2 X63.138 Y34.919 I1.216 J-0.442
N8010 G1 X70.291
N8015 G2 X71.499 Y34.089 I0. J-1.294
N8020 G1 X72.743 Y30.854
N8025 X73.873
N8030 X67.743 Y46.162
N8035 X67.476
N8040 G3 X67.288 Y46.031 I0. J-0.2
N8045 G1 X66.837 Y44.8
N8050 G3 X66.977 Y44.537 I0.188 J-0.069
N8055 G2 X67.879 Y43.731 I-0.311 J-1.256
N8060 G1 X70.345 Y37.091
N8065 G2 X69.132 Y35.347 I-1.213 J-0.45
N8070 G1 X64.249
N8075 G2 X63.033 Y37.083 I0. J1.294
N8080 G1 X65.45 Y43.723
N8085 G2 X66.977 Y44.537 I1.216 J-0.442
N8090 G3 X67.055 Z-0.179 I0.038 J0.154
N8095 X67.107 Y44.562 Z-0.121 I-0.04 J0.154
N8100 X67.124 Y44.576 Z-0.041 I-0.093 J0.129
N8105 G0 Z15.75
(2D POCKET7)
N8115 M8
N8120 G0 X80.917 Y43.762
N8125 Z15.75
N8130 Z5.75
N8135 G1 Z3.409 F304.8
N8140 G3 X80.927 Y43.779 Z3.331 I-0.632 J0.411
N8145 X80.955 Y43.828 Z3.273 I-0.643 J0.393
N8150 X80.986 Y43.898 Z3.25 I-0.671 J0.345
N8155 X79.582 Y44.447 Z3.167 I-0.702 J0.275
N8160 X80.986 Y43.898 Z3.085 I0.702 J-0.275
N8165 X79.582 Y44.447 Z3.002 I-0.702 J0.275
N8170 X80.986 Y43.898 Z2.919 I0.702 J-0.275
N8175 X79.582 Y44.447 Z2.836 I-0.702 J0.275
N8180 X80.986 Y43.898 Z2.754 I0.702 J-0.275
N8185 X79.582 Y44.447 Z2.671 I-0.702 J0.275
N8190 X80.986 Y43.898 Z2.588 I0.702 J-0.275
N8195 X79.582 Y44.447 Z2.505 I-0.702 J0.275
N8200 X80.986 Y43.898 Z2.423 I0.702 J-0.275
N8205 X79.582 Y44.447 Z2.34 I-0.702 J0.275
N8210 X80.986 Y43.898 Z2.257 I0.702 J-0.275
N8215 X79.582 Y44.447 Z2.175 I-0.702 J0.275
N8220 X80.986 Y43.898 Z2.092 I0.702 J-0.275
N8225 X79.582 Y44.447 Z2.009 I-0.702 J0.275
N8230 X80.986 Y43.898 Z1.926 I0.702 J-0.275
N8235 X79.582 Y44.447 Z1.844 I-0.702 J0.275
N8240 X80.986 Y43.898 Z1.761 I0.702 J-0.275
N8245 X79.582 Y44.447 Z1.678 I-0.702 J0.275
N8250 X80.986 Y43.898 Z1.595 I0.702 J-0.275
N8255 X79.582 Y44.447 Z1.513 I-0.702 J0.275
N8260 X80.986 Y43.898 Z1.43 I0.702 J-0.275
N8265 X79.582 Y44.447 Z1.347 I-0.702 J0.275
N8270 X80.986 Y43.898 Z1.265 I0.702 J-0.275
N8275 X79.582 Y44.447 Z1.182 I-0.702 J0.275
N8280 X80.986 Y43.898 Z1.099 I0.702 J-0.275
N8285 X79.582 Y44.447 Z1.016 I-0.702 J0.275
N8290 X80.986 Y43.898 Z0.934 I0.702 J-0.275
N8295 X79.582 Y44.447 Z0.851 I-0.702 J0.275
N8300 X80.986 Y43.898 Z0.768 I0.702 J-0.275
N8305 X79.582 Y44.447 Z0.686 I-0.702 J0.275
N8310 X80.986 Y43.898 Z0.603 I0.702 J-0.275
N8315 X79.582 Y44.447 Z0.52 I-0.702 J0.275
N8320 X80.986 Y43.898 Z0.437 I0.702 J-0.275
N8325 X79.582 Y44.447 Z0.355 I-0.702 J0.275
N8330 X80.986 Y43.898 Z0.272 I0.702 J-0.275
N8335 X79.582 Y44.447 Z0.189 I-0.702 J0.275
N8340 X80.986 Y43.898 Z0.106 I0.702 J-0.275
N8345 X79.582 Y44.447 Z0.024 I-0.702 J0.275
N8350 X80.986 Y43.898 Z-0.059 I0.702 J-0.275
N8355 X79.582 Y44.447 Z-0.142 I-0.702 J0.275
N8360 X80.484 Y43.446 Z-0.2 I0.702 J-0.275
N8365 G2 X80.666 Y43.488 I0.61 J-2.216
N8370 G3 X80.802 Y43.795 I-0.038 J0.2
N8375 G1 X80.264 Y44.673
N8380 G3 X80.036 Y44.608 I-0.105 J-0.064
N8385 G1 Y43.586
N8390 G3 X80.313 Y43.391 I0.207 J0.
N8395 G2 X80.484 Y43.446 I0.782 J-2.161
N8400 G3 X80.553 Y43.485 Z-0.179 I-0.042 J0.153
N8405 X80.586 Y43.532 Z-0.121 I-0.11 J0.114
N8410 X80.594 Y43.552 Z-0.041 I-0.144 J0.067
N8415 G0 Z5.75
N8420 X88.79 Y32.93
N8425 G1 Z3.409 F304.8
N8430 G3 X88.779 Y32.913 Z3.331 I0.636 J-0.405
N8435 X88.752 Y32.864 Z3.273 I0.647 J-0.388
N8440 X88.721 Y32.793 Z3.25 I0.674 J-0.339
N8445 X90.131 Y32.256 Z3.167 I0.705 J-0.269
N8450 X88.721 Y32.793 Z3.085 I-0.705 J0.269
N8455 X90.131 Y32.256 Z3.002 I0.705 J-0.269
N8460 X88.721 Y32.793 Z2.919 I-0.705 J0.269
N8465 X90.131 Y32.256 Z2.836 I0.705 J-0.269
N8470 X88.721 Y32.793 Z2.754 I-0.705 J0.269
N8475 X90.131 Y32.256 Z2.671 I0.705 J-0.269
N8480 X88.721 Y32.793 Z2.588 I-0.705 J0.269
N8485 X90.131 Y32.256 Z2.505 I0.705 J-0.269
N8490 X88.721 Y32.793 Z2.423 I-0.705 J0.269
N8495 X90.131 Y32.256 Z2.34 I0.705 J-0.269
N8500 X88.721 Y32.793 Z2.257 I-0.705 J0.269
N8505 X90.131 Y32.256 Z2.175 I0.705 J-0.269
N8510 X88.721 Y32.793 Z2.092 I-0.705 J0.269
N8515 X90.131 Y32.256 Z2.009 I0.705 J-0.269
N8520 X88.721 Y32.793 Z1.926 I-0.705 J0.269
N8525 X90.131 Y32.256 Z1.844 I0.705 J-0.269
N8530 X88.721 Y32.793 Z1.761 I-0.705 J0.269
N8535 X90.131 Y32.256 Z1.678 I0.705 J-0.269
N8540 X88.721 Y32.793 Z1.595 I-0.705 J0.269
N8545 X90.131 Y32.256 Z1.513 I0.705 J-0.269
N8550 X88.721 Y32.793 Z1.43 I-0.705 J0.269
N8555 X90.131 Y32.256 Z1.347 I0.705 J-0.269
N8560 X88.721 Y32.793 Z1.265 I-0.705 J0.269
N8565 X90.131 Y32.256 Z1.182 I0.705 J-0.269
N8570 X88.721 Y32.793 Z1.099 I-0.705 J0.269
N8575 X90.131 Y32.256 Z1.016 I0.705 J-0.269
N8580 X88.721 Y32.793 Z0.934 I-0.705 J0.269
N8585 X90.131 Y32.256 Z0.851 I0.705 J-0.269
N8590 X88.721 Y32.793 Z0.768 I-0.705 J0.269
N8595 X90.131 Y32.256 Z0.686 I0.705 J-0.269
N8600 X88.721 Y32.793 Z0.603 I-0.705 J0.269
N8605 X90.131 Y32.256 Z0.52 I0.705 J-0.269
N8610 X88.721 Y32.793 Z0.437 I-0.705 J0.269
N8615 X90.131 Y32.256 Z0.355 I0.705 J-0.269
N8620 X88.721 Y32.793 Z0.272 I-0.705 J0.269
N8625 X90.131 Y32.256 Z0.189 I0.705 J-0.269
N8630 X88.721 Y32.793 Z0.106 I-0.705 J0.269
N8635 X90.131 Y32.256 Z0.024 I0.705 J-0.269
N8640 X88.721 Y32.793 Z-0.059 I-0.705 J0.269
N8645 X90.131 Y32.256 Z-0.142 I0.705 J-0.269
N8650 X89.219 Y33.25 Z-0.2 I-0.705 J0.269
N8655 G2 X89.076 Y33.214 I-0.642 J2.255
N8660 G3 X88.966 Y32.956 I0.036 J-0.168
N8665 G1 X89.362 Y32.316
N8670 G3 X89.59 Y32.381 I0.105 J0.065
N8675 G1 Y33.076
N8680 G3 X89.311 Y33.278 I-0.213 J0.
N8685 G2 X89.219 Y33.25 I-0.733 J2.227
N8690 X88.141 Y33.731 I-0.252 J0.885
N8695 G3 X87.532 Y34.743 I-6.049 J-2.952
N8700 G2 X87.477 Y34.825 I1.046 J0.762
N8705 G1 X80.529 Y46.162
N8710 X79.031
N8715 Y30.854
N8720 X79.801
N8725 Y41.23
N8730 G2 X82.195 Y41.91 I1.294 J0.
N8735 G1 X89.03 Y30.854
N8740 X90.641
N8745 Y46.162
N8750 X89.871
N8755 Y35.505
N8760 G2 X87.532 Y34.743 I-1.294 J0.
N8765 G3 X87.471 Y34.793 Z-0.179 I-0.128 J-0.093
N8770 X87.415 Y34.808 Z-0.121 I-0.068 J-0.144
N8775 X87.394 Z-0.041 I-0.012 J-0.158
N8780 G0 Z15.75
(2D POCKET11)
N8790 M8
N8795 G0 X69.764 Y25.354
N8800 Z15.75
N8805 Z5.75
N8810 G1 Z3.409 F304.8
N8815 G18 G2 X69.917 Z3.25 I0.159 K0.
N8820 G1 X91.934 Z2.481
N8825 G17 G3 Y25.766 Z2.459 I0. J0.206
N8830 G1 X16.603 Z-0.172
N8835 G3 X16.397 Y25.56 Z-0.183 I0. J-0.206
N8840 X16.603 Y25.354 Z-0.195 I0.206 J0.
N8845 G1 X16.754 Z-0.2
N8850 X91.934
N8855 G3 Y25.766 I0. J0.206
N8860 G1 X16.603
N8865 G3 X16.397 Y25.56 I0. J-0.206
N8870 X16.603 Y25.354 I0.206 J0.
N8875 G1 X16.754
N8880 G3 X16.83 Y25.373 Z-0.179 I0. J0.159
N8885 X16.875 Y25.41 Z-0.121 I-0.076 J0.139
N8890 X16.887 Y25.427 Z-0.041 I-0.121 J0.103
N8895 G0 Z15.75
N8905 M9
N8910 G53 Z0.
N8915 M30
%
