%
(1001)
(T1  D=3.175 CR=0. - ZMIN=-5.6 - FLAT END MILL)
N10 G90 G94 G17 G91.1
N15 G21
N20 G53 G0 Z0.
(2D CONTOUR1)
N25 M9
N30 T1 M6
N35 S2000 M3
N40 G54
N45 M9
N55 G0 X28.166 Y44.485
N60 G43 Z8. H1
N65 G0 Z3.
N70 G1 Z1. F1270.
N75 Z0.817 F762.
N80 G19 G3 Y44.803 Z0.5 J0.318 K0.
N85 G1 Y45.12 F1270.
N90 G17 G3 X27.848 Y45.438 I-0.318 J0.
N95 G1 X13.688 Z-0.739
N100 Y29.563 Z-2.128
N105 X53.375 Z-5.6
N110 X61.313
N115 Y45.438
N120 X13.688
N125 Y29.563
N130 X53.375
N135 G3 X53.693 Y29.88 I0. J0.317
N140 G1 Y30.198
N145 G19 G3 Y30.515 Z-5.283 J0. K0.318
N150 G0 Z8.
N155 G17
(2D POCKET3)
N160 M9
N165 G0 X36.298 Y18.539
N170 Z8.
N175 Z2.
N180 G1 Z0.813 F1270.
N185 G3 X36.268 Y18.524 Z0.67 I0.655 J-1.359
N190 X36.186 Y18.478 Z0.558 I0.685 J-1.344
N195 X36.073 Y18.405 Z0.5 I0.767 J-1.298
N200 X37.833 Y15.955 Z-0.335 I0.88 J-1.225
N205 X36.073 Y18.405 Z-1.171 I-0.88 J1.225
N210 X37.833 Y15.955 Z-2.006 I0.88 J-1.225
N215 X36.073 Y18.405 Z-2.842 I-0.88 J1.225
N220 X37.833 Y15.955 Z-3.677 I0.88 J-1.225
N225 X36.073 Y18.405 Z-4.513 I-0.88 J1.225
N230 X37.833 Y15.955 Z-5.348 I0.88 J-1.225
N235 X38.461 Y17.18 Z-5.6 I-0.88 J1.225
N240 X36.539 I-0.961 J0.
N245 X41.478 I2.469 J0.
N250 X33.522 I-3.978 J0.
N255 X41.478 I3.978 J0.
N260 X41.455 Y17.299 Z-5.576 I-0.318 J0.
N265 X41.401 Y17.386 Z-5.507 I-0.295 J-0.119
N270 X41.351 Y17.433 Z-5.404 I-0.241 J-0.206
N275 X41.332 Y17.447 Z-5.283 I-0.191 J-0.253
N280 G0 Z8.
(CIRCULAR1)
N290 M9
N295 G0 X70.681 Y37.818
N300 Z8.
N305 Z0.
N310 G1 Z-1.683 F1270.
N315 G18 G3 X70.364 Z-2. I-0.318 K0.
N320 G1 X70.205
N325 G17 G3 X69.887 Y37.5 I0. J-0.318
N330 G2 X5.113 I-32.387 J0.
N335 X69.887 I32.387 J0.
N340 G3 X70.205 Y37.182 I0.318 J0.
N345 G1 X70.364
N350 G18 G2 X70.681 Z-1.683 I0. K0.317
N355 G0 Z3.
N360 Y37.818
N365 Z-2.
N370 G1 Z-3.682 F1270.
N375 G3 X70.364 Z-4. I-0.318 K0.
N380 G1 X70.205
N385 G17 G3 X69.887 Y37.5 I0. J-0.318
N390 G2 X5.113 I-32.387 J0.
N395 X69.887 I32.387 J0.
N400 G3 X70.205 Y37.182 I0.318 J0.
N405 G1 X70.364
N410 G18 G2 X70.681 Z-3.682 I0. K0.318
N415 G0 Z3.
N420 Y37.818
N425 Z-3.6
N430 G1 Z-5.282 F1270.
N435 G3 X70.364 Z-5.6 I-0.318 K0.
N440 G1 X70.205
N445 G17 G3 X69.887 Y37.5 I0. J-0.318
N450 G2 X5.113 I-32.387 J0.
N455 X69.887 I32.387 J0.
N460 G3 X70.205 Y37.182 I0.318 J0.
N465 G1 X70.364
N470 G18 G2 X70.681 Z-5.282 I0. K0.318
N475 G0 Z8.
N480 G17
N485 M9
N490 G53 G0 Z0.
N495 M30
%
