%
(1001)
(T1  D=1.587 CR=0. - ZMIN=-1.27 - FLAT END MILL)
N10 G90 G94 G17 G91.1
N15 G21
N20 G53 G0 Z0.
(BORE4)
N25 M9
N30 T1 M6
N35 S2000 M3
N40 G54
N45 M8
N55 G0 X4.459 Y15.841
N60 G43 Z15. H1
N65 G0 Z2.
N70 G1 Z0.159 F304.8
N75 G18 G2 X4.618 Z0. I0.159 K0.
N80 G1 X4.698
N85 G17 G3 X4.856 Y16. I0. J0.159
N90 X3.144 Z-0.5 I-0.856 J0.
N95 X4.856 Z-1. I0.856 J0.
N100 X3.893 Y16.849 Z-1.27 I-0.856 J0.
N105 X4.107 Y15.151 I0.107 J-0.849
N110 X3.893 Y16.849 I-0.107 J0.849
N115 X3.755 Y16.672 I0.02 J-0.157
N120 G1 X3.765 Y16.593
N125 X3.771 Y16.545 Z-1.262
N130 X3.777 Y16.501 Z-1.24
N135 X3.781 Y16.466 Z-1.205
N140 X3.784 Y16.444 Z-1.16
N145 X3.785 Y16.436 Z-1.111
N150 G0 Z15.
(BORE5)
N160 M8
N165 G0 X4.459 Y3.841
N170 Z15.
N175 Z2.
N180 G1 Z0.159 F304.8
N185 G18 G2 X4.618 Z0. I0.159 K0.
N190 G1 X4.698
N195 G17 G3 X4.856 Y4. I0. J0.159
N200 X3.144 Z-0.5 I-0.856 J0.
N205 X4.856 Z-1. I0.856 J0.
N210 X3.893 Y4.849 Z-1.27 I-0.856 J0.
N215 X4.107 Y3.151 I0.107 J-0.849
N220 X3.893 Y4.849 I-0.107 J0.849
N225 X3.755 Y4.672 I0.02 J-0.157
N230 G1 X3.765 Y4.593
N235 X3.771 Y4.545 Z-1.262
N240 X3.777 Y4.501 Z-1.24
N245 X3.781 Y4.466 Z-1.205
N250 X3.784 Y4.444 Z-1.16
N255 X3.785 Y4.436 Z-1.111
N260 G0 Z15.
(BORE6)
N270 M8
N275 G0 X24.809 Y9.841
N280 Z15.
N285 Z2.
N290 G1 Z0.159 F304.8
N295 G18 G2 X24.968 Z0. I0.159 K0.
N300 G1 X25.048
N305 G17 G3 X25.206 Y10. I0. J0.159
N310 X14.794 Z-0.5 I-5.206 J0.
N315 X25.206 Z-1. I5.206 J0.
N320 X19.347 Y15.165 Z-1.27 I-5.206 J0.
N325 X20.653 Y4.835 I0.653 J-5.165
N330 X19.347 Y15.165 I-0.653 J5.165
N335 X19.21 Y14.988 I0.02 J-0.157
N340 G1 X19.22 Y14.909
N345 X19.226 Y14.86 Z-1.262
N350 X19.232 Y14.816 Z-1.24
N355 X19.236 Y14.782 Z-1.205
N360 X19.239 Y14.759 Z-1.16
N365 X19.24 Y14.752 Z-1.111
N370 G0 Z15.
(2D CONTOUR10)
N380 M8
N385 G0 X2.211 Y21.27
N390 Z15.
N395 Z5.
N400 G1 Z1.2 F304.8
N405 Z-0.041 F762.
N410 G19 G2 Y21.111 Z-0.2 J-0.159 K0.
N415 G1 Y20.952 F304.8
N420 G17 G3 X2.37 Y20.794 I0.159 J0.
N425 G1 X20.
N430 G2 Y-0.794 I0. J-10.794
N435 G1 X2.
N440 G2 X-0.794 Y2. I0. J2.794
N445 G1 Y18.
N450 G2 X2. Y20.794 I2.794 J0.
N455 G1 X2.37
N460 G3 X2.529 Y20.952 I0. J0.159
N465 G1 Y21.111
N470 G19 G3 Y21.27 Z-0.041 J0. K0.159
N475 G0 Z5.
N480 X2.211
N485 G1 Z1. F304.8
N490 Z-0.241 F762.
N495 G2 Y21.111 Z-0.4 J-0.159 K0.
N500 G1 Y20.952 F304.8
N505 G17 G3 X2.37 Y20.794 I0.159 J0.
N510 G1 X20.
N515 G2 Y-0.794 I0. J-10.794
N520 G1 X2.
N525 G2 X-0.794 Y2. I0. J2.794
N530 G1 Y18.
N535 G2 X2. Y20.794 I2.794 J0.
N540 G1 X2.37
N545 G3 X2.529 Y20.952 I0. J0.159
N550 G1 Y21.111
N555 G19 G3 Y21.27 Z-0.241 J0. K0.159
N560 G0 Z5.
N565 X2.211
N570 G1 Z0.8 F304.8
N575 Z-0.441 F762.
N580 G2 Y21.111 Z-0.6 J-0.159 K0.
N585 G1 Y20.952 F304.8
N590 G17 G3 X2.37 Y20.794 I0.159 J0.
N595 G1 X20.
N600 G2 Y-0.794 I0. J-10.794
N605 G1 X2.
N610 G2 X-0.794 Y2. I0. J2.794
N615 G1 Y18.
N620 G2 X2. Y20.794 I2.794 J0.
N625 G1 X2.37
N630 G3 X2.529 Y20.952 I0. J0.159
N635 G1 Y21.111
N640 G19 G3 Y21.27 Z-0.441 J0. K0.159
N645 G0 Z5.
N650 X2.211
N655 G1 Z0.6 F304.8
N660 Z-0.641 F762.
N665 G2 Y21.111 Z-0.8 J-0.159 K0.
N670 G1 Y20.952 F304.8
N675 G17 G3 X2.37 Y20.794 I0.159 J0.
N680 G1 X20.
N685 G2 Y-0.794 I0. J-10.794
N690 G1 X2.
N695 G2 X-0.794 Y2. I0. J2.794
N700 G1 Y18.
N705 G2 X2. Y20.794 I2.794 J0.
N710 G1 X2.37
N715 G3 X2.529 Y20.952 I0. J0.159
N720 G1 Y21.111
N725 G19 G3 Y21.27 Z-0.641 J0. K0.159
N730 G0 Z5.
N735 X2.211
N740 G1 Z0.4 F304.8
N745 Z-0.841 F762.
N750 G2 Y21.111 Z-1. J-0.159 K0.
N755 G1 Y20.952 F304.8
N760 G17 G3 X2.37 Y20.794 I0.159 J0.
N765 G1 X20.
N770 G2 Y-0.794 I0. J-10.794
N775 G1 X2.
N780 G2 X-0.794 Y2. I0. J2.794
N785 G1 Y18.
N790 G2 X2. Y20.794 I2.794 J0.
N795 G1 X2.37
N800 G3 X2.529 Y20.952 I0. J0.159
N805 G1 Y21.111
N810 G19 G3 Y21.27 Z-0.841 J0. K0.159
N815 G0 Z5.
N820 X2.211
N825 G1 Z0.2 F304.8
N830 Z-1.041 F762.
N835 G2 Y21.111 Z-1.2 J-0.159 K0.
N840 G1 Y20.952 F304.8
N845 G17 G3 X2.37 Y20.794 I0.159 J0.
N850 G1 X20.
N855 G2 Y-0.794 I0. J-10.794
N860 G1 X2.
N865 G2 X-0.794 Y2. I0. J2.794
N870 G1 Y18.
N875 G2 X2. Y20.794 I2.794 J0.
N880 G1 X2.37
N885 G3 X2.529 Y20.952 I0. J0.159
N890 G1 Y21.111
N895 G19 G3 Y21.27 Z-1.041 J0. K0.159
N900 G0 Z5.
N905 X2.211
N910 G1 Z0. F304.8
N915 Z-1.111 F762.
N920 G2 Y21.111 Z-1.27 J-0.159 K0.
N925 G1 Y20.952 F304.8
N930 G17 G3 X2.37 Y20.794 I0.159 J0.
N935 G1 X20.
N940 G2 Y-0.794 I0. J-10.794
N945 G1 X2.
N950 G2 X-0.794 Y2. I0. J2.794
N955 G1 Y18.
N960 G2 X2. Y20.794 I2.794 J0.
N965 G1 X2.37
N970 G3 X2.529 Y20.952 I0. J0.159
N975 G1 Y21.111
N980 G19 G3 Y21.27 Z-1.111 J0. K0.159
N985 G0 Z15.
N990 G17
N995 M9
N1000 G53 G0 Z0.
N1005 M30
%
