%
(MEDIUMKEYHOLEHANGERV1_0)
(T1  D=3.175 CR=0. - ZMIN=-1.4 - FLAT END MILL)
N10 G90 G94 G17 G91.1
N15 G21
N20 G53 G0 Z0.
(2D CONTOUR1)
N25 M9
N30 T1 M6
N35 S2000 M3
N40 G54
N45 M8
N50 G0 X-12.74 Y-20.317
N55 G43 Z5. H1
N60 G1 Z2. F762.
N65 Z-0.683
N70 G18 G2 X-12.422 Z-1. I0.318 K0.
N75 G1 X-12.105
N80 G17 G3 X-11.788 Y-20. I0. J0.317
N85 G1 Y20.
N90 G2 X11.788 I11.788 J0.
N95 G1 Y-20.
N100 G2 X5.835 Y-30.242 I-11.788 J0.
N105 X0. Y-31.788 I-5.835 J10.242
N110 X-11.788 Y-20. I0. J11.788
N115 G1 Y-17.
N120 G3 X-12.105 Y-16.683 I-0.317 J0.
N125 G1 X-12.422
N130 G18 G3 X-12.74 Z-0.683 I0. K0.317
N135 G0 Z5.
N140 Y-20.317
N145 G1 Z1. F762.
N150 Z-1.083
N155 G2 X-12.422 Z-1.4 I0.318 K0.
N160 G1 X-12.105
N165 G17 G3 X-11.788 Y-20. I0. J0.317
N170 G1 Y20.
N175 G2 X11.788 I11.788 J0.
N180 G1 Y-20.
N185 G2 X-11.788 I-11.788 J0.
N190 G1 X-11.781 Y-19.953
N195 X-11.76 Y-19.91
N200 X-11.728 Y-19.875
N205 X-11.688 Y-19.85
N210 X-11.647 Y-19.825
N215 X-11.615 Y-19.79
N220 X-11.594 Y-19.747
N225 X-11.587 Y-19.7
N230 Y20.
N235 G2 X11.587 I11.587 J0.
N240 G1 Y-20.
N245 G2 X5.736 Y-30.068 I-11.588 J0.
N250 X0. Y-31.587 I-5.735 J10.069
N255 X-11.587 Y-20. I0. J11.587
N260 G1 Y-16.7
N265 G3 X-11.905 Y-16.382 I-0.318 J0.
N270 G1 X-12.222
N275 G18 G3 X-12.54 Z-1.083 I0. K0.317
N280 G0 Z5.
N285 G17
(2D CONTOUR2)
N290 G0 X1.76 Y-5.318
N295 G1 Z5. F762.
N300 Z2.
N305 Z-0.683
N310 G18 G2 X2.078 Z-1. I0.318 K0.
N315 G1 X2.395
N320 G17 G3 X2.713 Y-5. I0. J0.318
N325 X1.197 Y-2.566 I-2.712 J0.
N330 G2 X0.198 Y-0.962 I0.789 J1.604
N335 G1 Y7.944
N340 X0.2 Y8.016
N345 G3 X-0.008 Y8.237 I-0.212 J0.009
N350 X-0.225 Y8.025 I-0.004 J-0.212
N355 G1 Y7.944
N360 Y-0.975
N365 G2 X-1.213 Y-2.574 I-1.787 J0.
N370 G3 X1.213 Y-7.426 I1.213 J-2.426
N375 X2.713 Y-5. I-1.213 J2.426
N380 X2.395 Y-4.683 I-0.317 J0.
N385 G1 X2.078
N390 G18 G3 X1.76 Z-0.683 I0. K0.317
N395 G0 Z5.
N400 Y-5.318
N405 G1 Z1. F762.
N410 Z-1.083
N415 G2 X2.078 Z-1.4 I0.318 K0.
N420 G1 X2.395
N425 G17 G3 X2.713 Y-5. I0. J0.318
N430 X1.197 Y-2.566 I-2.712 J0.
N435 G2 X0.198 Y-0.962 I0.789 J1.604
N440 G1 Y7.944
N445 X0.2 Y8.016
N450 G3 X-0.008 Y8.237 I-0.212 J0.009
N455 X-0.225 Y8.025 I-0.004 J-0.212
N460 G1 Y-0.975
N465 G2 X-1.213 Y-2.574 I-1.787 J0.
N470 G3 X1.213 Y-7.426 I1.213 J-2.426
N475 X2.713 Y-5. I-1.213 J2.426
N480 G1 X2.719 Y-4.954
N485 X2.739 Y-4.912
N490 X2.769 Y-4.877
N495 X2.809 Y-4.853
N500 X2.848 Y-4.827
N505 X2.878 Y-4.791
N510 X2.895 Y-4.747
N515 X2.897 Y-4.701
N520 G3 X1.285 Y-2.386 I-2.897 J-0.299
N525 G2 X0.398 Y-0.962 I0.701 J1.425
N530 G1 Y7.944
N535 X0.4 Y8.008
N540 G3 X-0.004 Y8.437 I-0.412 J0.017
N545 X-0.425 Y8.025 I-0.008 J-0.412
N550 G1 Y7.944
N555 Y-0.975
N560 G2 X-1.303 Y-2.395 I-1.588 J0.
N565 G3 X1.303 Y-7.605 I1.303 J-2.605
N570 X2.897 Y-4.701 I-1.303 J2.605
N575 X2.549 Y-4.417 I-0.316 J-0.033
N580 G1 X2.233 Y-4.45
N585 X2.163 Y-4.457 Z-1.392
N590 X2.096 Y-4.464 Z-1.369
N595 X2.036 Y-4.47 Z-1.331
N600 X1.986 Y-4.476 Z-1.28
N605 X1.948 Y-4.479 Z-1.22
N610 X1.925 Y-4.482 Z-1.153
N615 X1.917 Y-4.483 Z-1.083
N620 G0 Z5.
N625 M9
N630 G53 Z0.
N635 M30
%
